(G-CODE GENERATED BY FLATCAM v8.991 - www.flatcam.org - Version Date: 2019/12/27)

(Name: cutout)
(Type: G-code from Geometry)
(Units: MM)

(Created on Friday, 13 March 2026 at 18:24)

(TOOL DIAMETER: 1.4 mm)
(Feedrate: 120.0 mm/min)
(Feedrate_Z: 60.0 mm/min)
(Feedrate rapids 1500.0 mm/min)

(Z_Cut: -2.0 mm)
(DepthPerCut: 0.6 mm <=>4 passes)
(Z_Move: 2.0 mm)
(Z Toolchange: 15.0 mm)
(X,Y Toolchange: 0.0000, 0.0000 mm)
(Z Start: None mm)
(Z End: 15.0 mm)
(Steps per circle: 64)
(Preprocessor Geometry: default)

(X range:   -0.5065 ...   63.0608  mm)
(Y range:   -0.2974 ...   30.2186  mm)

(Spindle Speed: 2000 RPM)
G21
G90
G94




G01 F120.00
G00 Z2.0000

M03 S2000
G00 X-0.5065 Y14.2606
G01 F60.00
G01 Z-0.6000
G01 F120.00
G01 X-0.5065 Y1.4026
G01 X-0.4983 Y1.2360
G01 X-0.4738 Y1.0709
G01 X-0.4333 Y0.9091
G01 X-0.3771 Y0.7520
G01 X-0.3058 Y0.6012
G01 X-0.2200 Y0.4581
G01 X-0.1206 Y0.3241
G01 X-0.0086 Y0.2005
G01 X0.1150 Y0.0885
G01 X0.2490 Y-0.0109
G01 X0.3921 Y-0.0967
G01 X0.5429 Y-0.1680
G01 X0.7000 Y-0.2242
G01 X0.8619 Y-0.2647
G01 X1.0269 Y-0.2892
G01 X1.1935 Y-0.2974
G01 X30.5772 Y-0.2974
G00 X30.5772 Y-0.2974
G01 F60.00
G01 Z-1.2000
G01 F120.00
G01 X1.1935 Y-0.2974
G01 X1.0269 Y-0.2892
G01 X0.8619 Y-0.2647
G01 X0.7000 Y-0.2242
G01 X0.5429 Y-0.1680
G01 X0.3921 Y-0.0967
G01 X0.2490 Y-0.0109
G01 X0.1150 Y0.0885
G01 X-0.0086 Y0.2005
G01 X-0.1206 Y0.3241
G01 X-0.2200 Y0.4581
G01 X-0.3058 Y0.6012
G01 X-0.3771 Y0.7520
G01 X-0.4333 Y0.9091
G01 X-0.4738 Y1.0709
G01 X-0.4983 Y1.2360
G01 X-0.5065 Y1.4026
G01 X-0.5065 Y14.2606
G00 X-0.5065 Y14.2606
G01 F60.00
G01 Z-1.8000
G01 F120.00
G01 X-0.5065 Y1.4026
G01 X-0.4983 Y1.2360
G01 X-0.4738 Y1.0709
G01 X-0.4333 Y0.9091
G01 X-0.3771 Y0.7520
G01 X-0.3058 Y0.6012
G01 X-0.2200 Y0.4581
G01 X-0.1206 Y0.3241
G01 X-0.0086 Y0.2005
G01 X0.1150 Y0.0885
G01 X0.2490 Y-0.0109
G01 X0.3921 Y-0.0967
G01 X0.5429 Y-0.1680
G01 X0.7000 Y-0.2242
G01 X0.8619 Y-0.2647
G01 X1.0269 Y-0.2892
G01 X1.1935 Y-0.2974
G01 X30.5772 Y-0.2974
G00 X30.5772 Y-0.2974
G01 F60.00
G01 Z-2.0000
G01 F120.00
G01 X1.1935 Y-0.2974
G01 X1.0269 Y-0.2892
G01 X0.8619 Y-0.2647
G01 X0.7000 Y-0.2242
G01 X0.5429 Y-0.1680
G01 X0.3921 Y-0.0967
G01 X0.2490 Y-0.0109
G01 X0.1150 Y0.0885
G01 X-0.0086 Y0.2005
G01 X-0.1206 Y0.3241
G01 X-0.2200 Y0.4581
G01 X-0.3058 Y0.6012
G01 X-0.3771 Y0.7520
G01 X-0.4333 Y0.9091
G01 X-0.4738 Y1.0709
G01 X-0.4983 Y1.2360
G01 X-0.5065 Y1.4026
G01 X-0.5065 Y14.2606
G00 Z2.0000
G00 X-0.5065 Y17.6606
G01 F60.00
G01 Z-0.6000
G01 F120.00
G01 X-0.5065 Y28.5186
G01 X-0.4983 Y28.6852
G01 X-0.4738 Y28.8503
G01 X-0.4333 Y29.0121
G01 X-0.3771 Y29.1692
G01 X-0.3058 Y29.3200
G01 X-0.2200 Y29.4631
G01 X-0.1206 Y29.5971
G01 X-0.0086 Y29.7207
G01 X0.1150 Y29.8327
G01 X0.2490 Y29.9321
G01 X0.3921 Y30.0179
G01 X0.5429 Y30.0892
G01 X0.7000 Y30.1454
G01 X0.8619 Y30.1859
G01 X1.0269 Y30.2104
G01 X1.1935 Y30.2186
G01 X30.5772 Y30.2186
G00 X30.5772 Y30.2186
G01 F60.00
G01 Z-1.2000
G01 F120.00
G01 X1.1935 Y30.2186
G01 X1.0269 Y30.2104
G01 X0.8619 Y30.1859
G01 X0.7000 Y30.1454
G01 X0.5429 Y30.0892
G01 X0.3921 Y30.0179
G01 X0.2490 Y29.9321
G01 X0.1150 Y29.8327
G01 X-0.0086 Y29.7207
G01 X-0.1206 Y29.5971
G01 X-0.2200 Y29.4631
G01 X-0.3058 Y29.3200
G01 X-0.3771 Y29.1692
G01 X-0.4333 Y29.0121
G01 X-0.4738 Y28.8503
G01 X-0.4983 Y28.6852
G01 X-0.5065 Y28.5186
G01 X-0.5065 Y17.6606
G00 X-0.5065 Y17.6606
G01 F60.00
G01 Z-1.8000
G01 F120.00
G01 X-0.5065 Y28.5186
G01 X-0.4983 Y28.6852
G01 X-0.4738 Y28.8503
G01 X-0.4333 Y29.0121
G01 X-0.3771 Y29.1692
G01 X-0.3058 Y29.3200
G01 X-0.2200 Y29.4631
G01 X-0.1206 Y29.5971
G01 X-0.0086 Y29.7207
G01 X0.1150 Y29.8327
G01 X0.2490 Y29.9321
G01 X0.3921 Y30.0179
G01 X0.5429 Y30.0892
G01 X0.7000 Y30.1454
G01 X0.8619 Y30.1859
G01 X1.0269 Y30.2104
G01 X1.1935 Y30.2186
G01 X30.5772 Y30.2186
G00 X30.5772 Y30.2186
G01 F60.00
G01 Z-2.0000
G01 F120.00
G01 X1.1935 Y30.2186
G01 X1.0269 Y30.2104
G01 X0.8619 Y30.1859
G01 X0.7000 Y30.1454
G01 X0.5429 Y30.0892
G01 X0.3921 Y30.0179
G01 X0.2490 Y29.9321
G01 X0.1150 Y29.8327
G01 X-0.0086 Y29.7207
G01 X-0.1206 Y29.5971
G01 X-0.2200 Y29.4631
G01 X-0.3058 Y29.3200
G01 X-0.3771 Y29.1692
G01 X-0.4333 Y29.0121
G01 X-0.4738 Y28.8503
G01 X-0.4983 Y28.6852
G01 X-0.5065 Y28.5186
G01 X-0.5065 Y17.6606
G00 Z2.0000
G00 X33.9772 Y30.2186
G01 F60.00
G01 Z-0.6000
G01 F120.00
G01 X61.3608 Y30.2186
G01 X61.5274 Y30.2104
G01 X61.6925 Y30.1859
G01 X61.8543 Y30.1454
G01 X62.0114 Y30.0892
G01 X62.1622 Y30.0179
G01 X62.3053 Y29.9321
G01 X62.4393 Y29.8327
G01 X62.5629 Y29.7207
G01 X62.6749 Y29.5971
G01 X62.7743 Y29.4631
G01 X62.8601 Y29.3200
G01 X62.9314 Y29.1692
G01 X62.9876 Y29.0121
G01 X63.0281 Y28.8503
G01 X63.0526 Y28.6852
G01 X63.0608 Y28.5186
G01 X63.0608 Y17.6606
G00 X63.0608 Y17.6606
G01 F60.00
G01 Z-1.2000
G01 F120.00
G01 X63.0608 Y28.5186
G01 X63.0526 Y28.6852
G01 X63.0281 Y28.8503
G01 X62.9876 Y29.0121
G01 X62.9314 Y29.1692
G01 X62.8601 Y29.3200
G01 X62.7743 Y29.4631
G01 X62.6749 Y29.5971
G01 X62.5629 Y29.7207
G01 X62.4393 Y29.8327
G01 X62.3053 Y29.9321
G01 X62.1622 Y30.0179
G01 X62.0114 Y30.0892
G01 X61.8543 Y30.1454
G01 X61.6925 Y30.1859
G01 X61.5274 Y30.2104
G01 X61.3608 Y30.2186
G01 X33.9772 Y30.2186
G00 X33.9772 Y30.2186
G01 F60.00
G01 Z-1.8000
G01 F120.00
G01 X61.3608 Y30.2186
G01 X61.5274 Y30.2104
G01 X61.6925 Y30.1859
G01 X61.8543 Y30.1454
G01 X62.0114 Y30.0892
G01 X62.1622 Y30.0179
G01 X62.3053 Y29.9321
G01 X62.4393 Y29.8327
G01 X62.5629 Y29.7207
G01 X62.6749 Y29.5971
G01 X62.7743 Y29.4631
G01 X62.8601 Y29.3200
G01 X62.9314 Y29.1692
G01 X62.9876 Y29.0121
G01 X63.0281 Y28.8503
G01 X63.0526 Y28.6852
G01 X63.0608 Y28.5186
G01 X63.0608 Y17.6606
G00 X63.0608 Y17.6606
G01 F60.00
G01 Z-2.0000
G01 F120.00
G01 X63.0608 Y28.5186
G01 X63.0526 Y28.6852
G01 X63.0281 Y28.8503
G01 X62.9876 Y29.0121
G01 X62.9314 Y29.1692
G01 X62.8601 Y29.3200
G01 X62.7743 Y29.4631
G01 X62.6749 Y29.5971
G01 X62.5629 Y29.7207
G01 X62.4393 Y29.8327
G01 X62.3053 Y29.9321
G01 X62.1622 Y30.0179
G01 X62.0114 Y30.0892
G01 X61.8543 Y30.1454
G01 X61.6925 Y30.1859
G01 X61.5274 Y30.2104
G01 X61.3608 Y30.2186
G01 X33.9772 Y30.2186
G00 Z2.0000
G00 X33.9772 Y-0.2974
G01 F60.00
G01 Z-0.6000
G01 F120.00
G01 X61.3608 Y-0.2974
G00 X61.3608 Y-0.2974
G01 F60.00
G01 Z-1.2000
G01 F120.00
G01 X33.9772 Y-0.2974
G00 X33.9772 Y-0.2974
G01 F60.00
G01 Z-1.8000
G01 F120.00
G01 X61.3608 Y-0.2974
G00 X61.3608 Y-0.2974
G01 F60.00
G01 Z-2.0000
G01 F120.00
G01 X33.9772 Y-0.2974
G00 Z2.0000
G00 X61.3608 Y-0.2974
G01 F60.00
G01 Z-0.6000
G01 F120.00
G01 X61.5274 Y-0.2892
G01 X61.6925 Y-0.2647
G01 X61.8543 Y-0.2242
G01 X62.0114 Y-0.1680
G01 X62.1622 Y-0.0967
G01 X62.3053 Y-0.0109
G01 X62.4393 Y0.0885
G01 X62.5629 Y0.2005
G01 X62.6749 Y0.3241
G01 X62.7743 Y0.4581
G01 X62.8601 Y0.6012
G01 X62.9314 Y0.7520
G01 X62.9876 Y0.9091
G01 X63.0281 Y1.0709
G01 X63.0526 Y1.2360
G01 X63.0608 Y1.4026
G01 X63.0608 Y14.2606
G00 X63.0608 Y14.2606
G01 F60.00
G01 Z-1.2000
G01 F120.00
G01 X63.0608 Y1.4026
G01 X63.0526 Y1.2360
G01 X63.0281 Y1.0709
G01 X62.9876 Y0.9091
G01 X62.9314 Y0.7520
G01 X62.8601 Y0.6012
G01 X62.7743 Y0.4581
G01 X62.6749 Y0.3241
G01 X62.5629 Y0.2005
G01 X62.4393 Y0.0885
G01 X62.3053 Y-0.0109
G01 X62.1622 Y-0.0967
G01 X62.0114 Y-0.1680
G01 X61.8543 Y-0.2242
G01 X61.6925 Y-0.2647
G01 X61.5274 Y-0.2892
G01 X61.3608 Y-0.2974
G00 X61.3608 Y-0.2974
G01 F60.00
G01 Z-1.8000
G01 F120.00
G01 X61.5274 Y-0.2892
G01 X61.6925 Y-0.2647
G01 X61.8543 Y-0.2242
G01 X62.0114 Y-0.1680
G01 X62.1622 Y-0.0967
G01 X62.3053 Y-0.0109
G01 X62.4393 Y0.0885
G01 X62.5629 Y0.2005
G01 X62.6749 Y0.3241
G01 X62.7743 Y0.4581
G01 X62.8601 Y0.6012
G01 X62.9314 Y0.7520
G01 X62.9876 Y0.9091
G01 X63.0281 Y1.0709
G01 X63.0526 Y1.2360
G01 X63.0608 Y1.4026
G01 X63.0608 Y14.2606
G00 X63.0608 Y14.2606
G01 F60.00
G01 Z-2.0000
G01 F120.00
G01 X63.0608 Y1.4026
G01 X63.0526 Y1.2360
G01 X63.0281 Y1.0709
G01 X62.9876 Y0.9091
G01 X62.9314 Y0.7520
G01 X62.8601 Y0.6012
G01 X62.7743 Y0.4581
G01 X62.6749 Y0.3241
G01 X62.5629 Y0.2005
G01 X62.4393 Y0.0885
G01 X62.3053 Y-0.0109
G01 X62.1622 Y-0.0967
G01 X62.0114 Y-0.1680
G01 X61.8543 Y-0.2242
G01 X61.6925 Y-0.2647
G01 X61.5274 Y-0.2892
G01 X61.3608 Y-0.2974
G00 Z2.0000
M05
G00 Z2.0000
G00 Z15.00
G00 X0.0 Y0.0

