(G-CODE GENERATED BY FLATCAM v8.991 - www.flatcam.org - Version Date: 2019/12/27)

(Name: drill)
(Type: G-code from Excellon)
(Units: MM)

(Created on Friday, 13 March 2026 at 18:25)

(Feedrate: 300.0 mm/min)
(Feedrate rapids 1500.0 mm/min)

(Z_Cut: -2.0 mm)
(Z_Move: 2.0 mm)
(Z Toolchange: 15.0 mm)
(X,Y Toolchange: 0.0000, 0.0000 mm)
(Z Start: None mm)
(Z End: 0.5 mm)
(Steps per circle: 64)
(Preprocessor Excellon: default)

(X range:    5.3015 ...   60.8452  mm)
(Y range:    1.9208 ...   28.0208  mm)

(Spindle Speed: 2000.0 RPM)
G21
G90
G94




G01 F300.00
G00 Z2.0000

M03 S2000.0
G00 X5.6515 Y22.5349
G01 Z-2.0000
G01 Z0
G00 Z2.0000
G00 X5.6515 Y19.9949
G01 Z-2.0000
G01 Z0
G00 Z2.0000
G00 X5.6515 Y17.4549
G01 Z-2.0000
G01 Z0
G00 Z2.0000
G00 X5.6515 Y14.9149
G01 Z-2.0000
G01 Z0
G00 Z2.0000
G00 X5.6515 Y12.3749
G01 Z-2.0000
G01 Z0
G00 Z2.0000
G00 X5.6515 Y9.8349
G01 Z-2.0000
G01 Z0
G00 Z2.0000
G00 X5.6515 Y7.2949
G01 Z-2.0000
G01 Z0
G00 Z2.0000
G00 X5.6515 Y4.7549
G01 Z-2.0000
G01 Z0
G00 Z2.0000
M03 S2000.0
G00 X45.2907 Y23.1165
G01 Z-2.0000
G01 Z0
G00 Z2.0000
G00 X40.2234 Y22.9057
G01 Z-2.0000
G01 Z0
G00 Z2.0000
G00 X40.3377 Y12.4460
G01 Z-2.0000
G01 Z0
G00 Z2.0000
G00 X45.1358 Y14.9301
G01 Z-2.0000
G01 Z0
G00 Z2.0000
M05
G00 Z0.50
G00 X0.0 Y0.0

