(G-CODE GENERATED BY FLATCAM v8.991 - www.flatcam.org - Version Date: 2019/12/27)

(Name: drill)
(Type: G-code from Excellon)
(Units: MM)

(Created on Friday, 13 March 2026 at 18:25)

(Feedrate: 300.0 mm/min)
(Feedrate rapids 1500.0 mm/min)

(Z_Cut: -2.0 mm)
(Z_Move: 2.0 mm)
(Z Toolchange: 15.0 mm)
(X,Y Toolchange: 0.0000, 0.0000 mm)
(Z Start: None mm)
(Z End: 0.5 mm)
(Steps per circle: 64)
(Preprocessor Excellon: default)

(X range:    5.3015 ...   60.8452  mm)
(Y range:    1.9208 ...   28.0208  mm)

(Spindle Speed: 2000.0 RPM)
G21
G90
G94




G01 F300.00
G00 Z2.0000

M03 S2000.0
G00 X14.7752 Y2.2708
G01 Z-2.0000
G01 Z0
G00 Z2.0000
G00 X17.3152 Y2.2708
G01 Z-2.0000
G01 Z0
G00 Z2.0000
G00 X19.8552 Y2.2708
G01 Z-2.0000
G01 Z0
G00 Z2.0000
G00 X22.3952 Y2.2708
G01 Z-2.0000
G01 Z0
G00 Z2.0000
G00 X24.9352 Y2.2708
G01 Z-2.0000
G01 Z0
G00 Z2.0000
G00 X27.4752 Y2.2708
G01 Z-2.0000
G01 Z0
G00 Z2.0000
G00 X30.0152 Y2.2708
G01 Z-2.0000
G01 Z0
G00 Z2.0000
G00 X32.5552 Y2.2708
G01 Z-2.0000
G01 Z0
G00 Z2.0000
G00 X35.0952 Y2.2708
G01 Z-2.0000
G01 Z0
G00 Z2.0000
G00 X37.6352 Y2.2708
G01 Z-2.0000
G01 Z0
G00 Z2.0000
G00 X40.1752 Y2.2708
G01 Z-2.0000
G01 Z0
G00 Z2.0000
G00 X42.7152 Y2.2708
G01 Z-2.0000
G01 Z0
G00 Z2.0000
G00 X45.2552 Y2.2708
G01 Z-2.0000
G01 Z0
G00 Z2.0000
G00 X47.7952 Y2.2708
G01 Z-2.0000
G01 Z0
G00 Z2.0000
G00 X50.3352 Y2.2708
G01 Z-2.0000
G01 Z0
G00 Z2.0000
G00 X52.8752 Y2.2708
G01 Z-2.0000
G01 Z0
G00 Z2.0000
G00 X55.4152 Y2.2708
G01 Z-2.0000
G01 Z0
G00 Z2.0000
G00 X57.9552 Y2.2708
G01 Z-2.0000
G01 Z0
G00 Z2.0000
G00 X60.4952 Y2.2708
G01 Z-2.0000
G01 Z0
G00 Z2.0000
G00 X60.4952 Y27.6708
G01 Z-2.0000
G01 Z0
G00 Z2.0000
G00 X57.9552 Y27.6708
G01 Z-2.0000
G01 Z0
G00 Z2.0000
G00 X55.4152 Y27.6708
G01 Z-2.0000
G01 Z0
G00 Z2.0000
G00 X52.8752 Y27.6708
G01 Z-2.0000
G01 Z0
G00 Z2.0000
G00 X50.3352 Y27.6708
G01 Z-2.0000
G01 Z0
G00 Z2.0000
G00 X47.7952 Y27.6708
G01 Z-2.0000
G01 Z0
G00 Z2.0000
G00 X45.2552 Y27.6708
G01 Z-2.0000
G01 Z0
G00 Z2.0000
G00 X42.7152 Y27.6708
G01 Z-2.0000
G01 Z0
G00 Z2.0000
G00 X40.1752 Y27.6708
G01 Z-2.0000
G01 Z0
G00 Z2.0000
G00 X37.6352 Y27.6708
G01 Z-2.0000
G01 Z0
G00 Z2.0000
G00 X35.0952 Y27.6708
G01 Z-2.0000
G01 Z0
G00 Z2.0000
G00 X32.5552 Y27.6708
G01 Z-2.0000
G01 Z0
G00 Z2.0000
G00 X30.0152 Y27.6708
G01 Z-2.0000
G01 Z0
G00 Z2.0000
G00 X27.4752 Y27.6708
G01 Z-2.0000
G01 Z0
G00 Z2.0000
G00 X24.9352 Y27.6708
G01 Z-2.0000
G01 Z0
G00 Z2.0000
G00 X22.3952 Y27.6708
G01 Z-2.0000
G01 Z0
G00 Z2.0000
G00 X19.8552 Y27.6708
G01 Z-2.0000
G01 Z0
G00 Z2.0000
G00 X17.3152 Y27.6708
G01 Z-2.0000
G01 Z0
G00 Z2.0000
G00 X14.7752 Y27.6708
G01 Z-2.0000
G01 Z0
G00 Z2.0000
M03 S2000.0
M05
G00 Z0.50
G00 X0.0 Y0.0

