(G-CODE GENERATED BY FLATCAM v8.991 - www.flatcam.org - Version Date: 2019/12/27)

(Name: top)
(Type: G-code from Geometry)
(Units: MM)

(Created on Friday, 13 March 2026 at 18:22)

(TOOL DIAMETER: 0.1 mm)
(Feedrate: 120.0 mm/min)
(Feedrate_Z: 60.0 mm/min)
(Feedrate rapids 1500.0 mm/min)

(Z_Cut: -0.2 mm)
(Z_Move: 2.0 mm)
(Z Toolchange: 15.0 mm)
(X,Y Toolchange: 0.0000, 0.0000 mm)
(Z Start: None mm)
(Z End: 15.0 mm)
(Steps per circle: 64)
(Preprocessor Geometry: default)

(X range:    1.0535 ...   61.5006  mm)
(Y range:    1.2628 ...   28.6584  mm)

(Spindle Speed: 2000 RPM)
G21
G90
G94




G01 F120.00
G00 Z2.0000

M03 S2000
G00 X6.3169 Y8.0437
G01 F60.00
G01 Z-0.2000
G01 F120.00
G01 X6.3025 Y8.0568
G01 X6.2919 Y8.0655
G01 X6.2243 Y8.1156
G01 X6.2129 Y8.1233
G01 X6.1406 Y8.1666
G01 X6.1285 Y8.1730
G01 X6.0524 Y8.2090
G01 X6.0397 Y8.2143
G01 X5.9604 Y8.2427
G01 X5.9473 Y8.2467
G01 X5.8656 Y8.2671
G01 X5.8521 Y8.2698
G01 X5.7688 Y8.2821
G01 X5.7552 Y8.2835
G01 X5.6711 Y8.2876
G01 X5.6573 Y8.2876
G01 X5.5732 Y8.2835
G01 X5.5596 Y8.2821
G01 X5.4763 Y8.2698
G01 X5.4628 Y8.2671
G01 X5.3811 Y8.2467
G01 X5.3680 Y8.2427
G01 X5.2887 Y8.2143
G01 X5.2760 Y8.2090
G01 X5.1999 Y8.1730
G01 X5.1878 Y8.1666
G01 X5.1155 Y8.1233
G01 X5.1041 Y8.1156
G01 X5.0365 Y8.0655
G01 X5.0259 Y8.0568
G01 X4.9635 Y8.0002
G01 X4.9538 Y7.9905
G01 X4.8972 Y7.9281
G01 X4.8885 Y7.9175
G01 X4.8384 Y7.8499
G01 X4.8307 Y7.8385
G01 X4.7874 Y7.7662
G01 X4.7810 Y7.7541
G01 X4.7450 Y7.6780
G01 X4.7397 Y7.6653
G01 X4.7113 Y7.5860
G01 X4.7073 Y7.5729
G01 X4.6869 Y7.4912
G01 X4.6842 Y7.4777
G01 X4.6719 Y7.3944
G01 X4.6705 Y7.3808
G01 X4.6664 Y7.2967
G01 X4.6664 Y7.2829
G01 X4.6705 Y7.1988
G01 X4.6719 Y7.1852
G01 X4.6842 Y7.1019
G01 X4.6869 Y7.0884
G01 X4.7073 Y7.0067
G01 X4.7113 Y6.9936
G01 X4.7397 Y6.9143
G01 X4.7450 Y6.9016
G01 X4.7810 Y6.8255
G01 X4.7874 Y6.8134
G01 X4.8307 Y6.7411
G01 X4.8384 Y6.7297
G01 X4.8885 Y6.6621
G01 X4.8972 Y6.6515
G01 X4.9538 Y6.5891
G01 X4.9635 Y6.5794
G01 X5.0259 Y6.5228
G01 X5.0365 Y6.5141
G01 X5.1041 Y6.4640
G01 X5.1155 Y6.4563
G01 X5.1878 Y6.4130
G01 X5.1999 Y6.4066
G01 X5.2760 Y6.3706
G01 X5.2887 Y6.3653
G01 X5.3680 Y6.3369
G01 X5.3811 Y6.3329
G01 X5.4628 Y6.3125
G01 X5.4763 Y6.3098
G01 X5.5596 Y6.2975
G01 X5.5732 Y6.2961
G01 X5.6573 Y6.2920
G01 X5.6711 Y6.2920
G01 X5.7552 Y6.2961
G01 X5.7688 Y6.2975
G01 X5.8521 Y6.3098
G01 X5.8656 Y6.3125
G01 X5.9473 Y6.3329
G01 X5.9604 Y6.3369
G01 X6.0397 Y6.3653
G01 X6.0524 Y6.3706
G01 X6.1285 Y6.4066
G01 X6.1406 Y6.4130
G01 X6.2129 Y6.4563
G01 X6.2243 Y6.4640
G01 X6.2919 Y6.5141
G01 X6.3025 Y6.5228
G01 X6.3256 Y6.5438
G01 X11.9106 Y6.6123
G01 X14.0329 Y4.4900
G01 X14.0329 Y2.9178
G01 X14.0158 Y2.8989
G01 X14.0071 Y2.8883
G01 X13.9570 Y2.8207
G01 X13.9493 Y2.8093
G01 X13.9060 Y2.7370
G01 X13.8996 Y2.7249
G01 X13.8636 Y2.6488
G01 X13.8583 Y2.6361
G01 X13.8299 Y2.5568
G01 X13.8259 Y2.5437
G01 X13.8055 Y2.4620
G01 X13.8028 Y2.4485
G01 X13.7905 Y2.3652
G01 X13.7891 Y2.3516
G01 X13.7850 Y2.2675
G01 X13.7850 Y2.2537
G01 X13.7891 Y2.1696
G01 X13.7905 Y2.1560
G01 X13.8028 Y2.0727
G01 X13.8055 Y2.0592
G01 X13.8259 Y1.9775
G01 X13.8299 Y1.9644
G01 X13.8583 Y1.8851
G01 X13.8636 Y1.8724
G01 X13.8996 Y1.7963
G01 X13.9060 Y1.7842
G01 X13.9493 Y1.7119
G01 X13.9570 Y1.7005
G01 X14.0071 Y1.6329
G01 X14.0158 Y1.6223
G01 X14.0724 Y1.5599
G01 X14.0821 Y1.5502
G01 X14.1445 Y1.4936
G01 X14.1551 Y1.4849
G01 X14.2227 Y1.4348
G01 X14.2341 Y1.4271
G01 X14.3064 Y1.3838
G01 X14.3185 Y1.3774
G01 X14.3946 Y1.3414
G01 X14.4073 Y1.3361
G01 X14.4866 Y1.3077
G01 X14.4997 Y1.3037
G01 X14.5814 Y1.2833
G01 X14.5949 Y1.2806
G01 X14.6782 Y1.2683
G01 X14.6918 Y1.2669
G01 X14.7759 Y1.2628
G01 X14.7897 Y1.2628
G01 X14.8738 Y1.2669
G01 X14.8874 Y1.2683
G01 X14.9707 Y1.2806
G01 X14.9842 Y1.2833
G01 X15.0659 Y1.3037
G01 X15.0790 Y1.3077
G01 X15.1583 Y1.3361
G01 X15.1710 Y1.3414
G01 X15.2471 Y1.3774
G01 X15.2592 Y1.3838
G01 X15.3315 Y1.4271
G01 X15.3429 Y1.4348
G01 X15.4105 Y1.4849
G01 X15.4211 Y1.4936
G01 X15.4835 Y1.5502
G01 X15.4932 Y1.5599
G01 X15.5498 Y1.6223
G01 X15.5585 Y1.6329
G01 X15.6086 Y1.7005
G01 X15.6163 Y1.7119
G01 X15.6596 Y1.7842
G01 X15.6660 Y1.7963
G01 X15.7020 Y1.8724
G01 X15.7073 Y1.8851
G01 X15.7357 Y1.9644
G01 X15.7397 Y1.9775
G01 X15.7601 Y2.0592
G01 X15.7628 Y2.0727
G01 X15.7751 Y2.1560
G01 X15.7765 Y2.1696
G01 X15.7806 Y2.2537
G01 X15.7806 Y2.2675
G01 X15.7765 Y2.3516
G01 X15.7751 Y2.3652
G01 X15.7628 Y2.4485
G01 X15.7601 Y2.4620
G01 X15.7397 Y2.5437
G01 X15.7357 Y2.5568
G01 X15.7073 Y2.6361
G01 X15.7020 Y2.6488
G01 X15.6660 Y2.7249
G01 X15.6596 Y2.7370
G01 X15.6163 Y2.8093
G01 X15.6086 Y2.8207
G01 X15.5585 Y2.8883
G01 X15.5498 Y2.8989
G01 X15.5327 Y2.9178
G01 X15.5325 Y4.8075
G01 X15.5296 Y4.8673
G01 X15.5283 Y4.8809
G01 X15.5195 Y4.9401
G01 X15.5168 Y4.9536
G01 X15.5022 Y5.0117
G01 X15.4983 Y5.0248
G01 X15.4781 Y5.0812
G01 X15.4728 Y5.0939
G01 X15.4472 Y5.1480
G01 X15.4408 Y5.1601
G01 X15.4100 Y5.2114
G01 X15.4024 Y5.2228
G01 X15.3667 Y5.2709
G01 X15.3580 Y5.2815
G01 X15.3131 Y5.3309
G01 X12.7477 Y7.8963
G01 X12.7361 Y7.9074
G01 X12.6983 Y7.9412
G01 X12.6805 Y7.9556
G01 X12.6396 Y7.9856
G01 X12.6205 Y7.9982
G01 X12.5769 Y8.0240
G01 X12.5566 Y8.0346
G01 X12.5107 Y8.0560
G01 X12.5022 Y8.0596
G01 X12.4894 Y8.0647
G01 X12.4416 Y8.0815
G01 X12.4196 Y8.0880
G01 X12.3704 Y8.1000
G01 X12.3479 Y8.1043
G01 X12.2977 Y8.1115
G01 X12.2886 Y8.1124
G01 X12.2749 Y8.1136
G01 X12.2243 Y8.1157
G01 X12.2082 Y8.1158
G01 X6.3169 Y8.0437
G00 Z2.0000
G00 X6.3209 Y10.5801
G01 F60.00
G01 Z-0.2000
G01 F120.00
G01 X6.3025 Y10.5968
G01 X6.2919 Y10.6055
G01 X6.2243 Y10.6556
G01 X6.2129 Y10.6633
G01 X6.1406 Y10.7066
G01 X6.1285 Y10.7130
G01 X6.0524 Y10.7490
G01 X6.0397 Y10.7543
G01 X5.9604 Y10.7827
G01 X5.9473 Y10.7867
G01 X5.8656 Y10.8071
G01 X5.8521 Y10.8098
G01 X5.7688 Y10.8221
G01 X5.7552 Y10.8235
G01 X5.6711 Y10.8276
G01 X5.6573 Y10.8276
G01 X5.5732 Y10.8235
G01 X5.5596 Y10.8221
G01 X5.4763 Y10.8098
G01 X5.4628 Y10.8071
G01 X5.3811 Y10.7867
G01 X5.3680 Y10.7827
G01 X5.2887 Y10.7543
G01 X5.2760 Y10.7490
G01 X5.1999 Y10.7130
G01 X5.1878 Y10.7066
G01 X5.1155 Y10.6633
G01 X5.1041 Y10.6556
G01 X5.0365 Y10.6055
G01 X5.0259 Y10.5968
G01 X4.9635 Y10.5402
G01 X4.9538 Y10.5305
G01 X4.8972 Y10.4681
G01 X4.8885 Y10.4575
G01 X4.8384 Y10.3899
G01 X4.8307 Y10.3785
G01 X4.7874 Y10.3062
G01 X4.7810 Y10.2941
G01 X4.7450 Y10.2180
G01 X4.7397 Y10.2053
G01 X4.7113 Y10.1260
G01 X4.7073 Y10.1129
G01 X4.6869 Y10.0312
G01 X4.6842 Y10.0177
G01 X4.6719 Y9.9344
G01 X4.6705 Y9.9208
G01 X4.6664 Y9.8367
G01 X4.6664 Y9.8229
G01 X4.6705 Y9.7388
G01 X4.6719 Y9.7252
G01 X4.6842 Y9.6419
G01 X4.6869 Y9.6284
G01 X4.7073 Y9.5467
G01 X4.7113 Y9.5336
G01 X4.7397 Y9.4543
G01 X4.7450 Y9.4416
G01 X4.7810 Y9.3655
G01 X4.7874 Y9.3534
G01 X4.8307 Y9.2811
G01 X4.8384 Y9.2697
G01 X4.8885 Y9.2021
G01 X4.8972 Y9.1915
G01 X4.9538 Y9.1291
G01 X4.9635 Y9.1194
G01 X5.0259 Y9.0628
G01 X5.0365 Y9.0541
G01 X5.1041 Y9.0040
G01 X5.1155 Y8.9963
G01 X5.1878 Y8.9530
G01 X5.1999 Y8.9466
G01 X5.2760 Y8.9106
G01 X5.2887 Y8.9053
G01 X5.3680 Y8.8769
G01 X5.3811 Y8.8729
G01 X5.4628 Y8.8525
G01 X5.4763 Y8.8498
G01 X5.5596 Y8.8375
G01 X5.5732 Y8.8361
G01 X5.6573 Y8.8320
G01 X5.6711 Y8.8320
G01 X5.7552 Y8.8361
G01 X5.7688 Y8.8375
G01 X5.8521 Y8.8498
G01 X5.8656 Y8.8525
G01 X5.9473 Y8.8729
G01 X5.9604 Y8.8769
G01 X6.0397 Y8.9053
G01 X6.0524 Y8.9106
G01 X6.1285 Y8.9466
G01 X6.1406 Y8.9530
G01 X6.2129 Y8.9963
G01 X6.2243 Y9.0040
G01 X6.2919 Y9.0541
G01 X6.3025 Y9.0628
G01 X6.3218 Y9.0803
G01 X47.6278 Y9.1305
G01 X52.1329 Y6.9005
G01 X52.1329 Y2.9178
G01 X52.1158 Y2.8989
G01 X52.1071 Y2.8883
G01 X52.0570 Y2.8207
G01 X52.0493 Y2.8093
G01 X52.0060 Y2.7370
G01 X51.9996 Y2.7249
G01 X51.9636 Y2.6488
G01 X51.9583 Y2.6361
G01 X51.9299 Y2.5568
G01 X51.9259 Y2.5437
G01 X51.9055 Y2.4620
G01 X51.9028 Y2.4485
G01 X51.8905 Y2.3652
G01 X51.8891 Y2.3516
G01 X51.8850 Y2.2675
G01 X51.8850 Y2.2537
G01 X51.8891 Y2.1696
G01 X51.8905 Y2.1560
G01 X51.9028 Y2.0727
G01 X51.9055 Y2.0592
G01 X51.9259 Y1.9775
G01 X51.9299 Y1.9644
G01 X51.9583 Y1.8851
G01 X51.9636 Y1.8724
G01 X51.9996 Y1.7963
G01 X52.0060 Y1.7842
G01 X52.0493 Y1.7119
G01 X52.0570 Y1.7005
G01 X52.1071 Y1.6329
G01 X52.1158 Y1.6223
G01 X52.1724 Y1.5599
G01 X52.1821 Y1.5502
G01 X52.2445 Y1.4936
G01 X52.2551 Y1.4849
G01 X52.3227 Y1.4348
G01 X52.3341 Y1.4271
G01 X52.4064 Y1.3838
G01 X52.4185 Y1.3774
G01 X52.4946 Y1.3414
G01 X52.5073 Y1.3361
G01 X52.5866 Y1.3077
G01 X52.5997 Y1.3037
G01 X52.6814 Y1.2833
G01 X52.6949 Y1.2806
G01 X52.7782 Y1.2683
G01 X52.7918 Y1.2669
G01 X52.8759 Y1.2628
G01 X52.8897 Y1.2628
G01 X52.9738 Y1.2669
G01 X52.9874 Y1.2683
G01 X53.0707 Y1.2806
G01 X53.0842 Y1.2833
G01 X53.1659 Y1.3037
G01 X53.1790 Y1.3077
G01 X53.2583 Y1.3361
G01 X53.2710 Y1.3414
G01 X53.3471 Y1.3774
G01 X53.3592 Y1.3838
G01 X53.4315 Y1.4271
G01 X53.4429 Y1.4348
G01 X53.5105 Y1.4849
G01 X53.5211 Y1.4936
G01 X53.5835 Y1.5502
G01 X53.5932 Y1.5599
G01 X53.6498 Y1.6223
G01 X53.6585 Y1.6329
G01 X53.7086 Y1.7005
G01 X53.7163 Y1.7119
G01 X53.7596 Y1.7842
G01 X53.7660 Y1.7963
G01 X53.8020 Y1.8724
G01 X53.8073 Y1.8851
G01 X53.8357 Y1.9644
G01 X53.8397 Y1.9775
G01 X53.8601 Y2.0592
G01 X53.8628 Y2.0727
G01 X53.8751 Y2.1560
G01 X53.8765 Y2.1696
G01 X53.8806 Y2.2537
G01 X53.8806 Y2.2675
G01 X53.8765 Y2.3516
G01 X53.8751 Y2.3652
G01 X53.8628 Y2.4485
G01 X53.8601 Y2.4620
G01 X53.8397 Y2.5437
G01 X53.8357 Y2.5568
G01 X53.8073 Y2.6361
G01 X53.8020 Y2.6488
G01 X53.7660 Y2.7249
G01 X53.7596 Y2.7370
G01 X53.7163 Y2.8093
G01 X53.7086 Y2.8207
G01 X53.6585 Y2.8883
G01 X53.6498 Y2.8989
G01 X53.6327 Y2.9178
G01 X53.6327 Y7.3660
G01 X53.6324 Y7.3825
G01 X53.6320 Y7.3963
G01 X53.6305 Y7.4144
G01 X53.6296 Y7.4327
G01 X53.6283 Y7.4463
G01 X53.6254 Y7.4696
G01 X53.6221 Y7.4875
G01 X53.6195 Y7.5055
G01 X53.6117 Y7.5419
G01 X53.6067 Y7.5594
G01 X53.6022 Y7.5771
G01 X53.5953 Y7.5994
G01 X53.5909 Y7.6124
G01 X53.5842 Y7.6294
G01 X53.5781 Y7.6466
G01 X53.5728 Y7.6593
G01 X53.5633 Y7.6807
G01 X53.5550 Y7.6969
G01 X53.5472 Y7.7134
G01 X53.5292 Y7.7459
G01 X53.5194 Y7.7612
G01 X53.5100 Y7.7768
G01 X53.4969 Y7.7962
G01 X53.4889 Y7.8074
G01 X53.4776 Y7.8217
G01 X53.4667 Y7.8363
G01 X53.4427 Y7.8647
G01 X53.4300 Y7.8778
G01 X53.4178 Y7.8913
G01 X53.4011 Y7.9077
G01 X53.3911 Y7.9171
G01 X53.3772 Y7.9290
G01 X53.3637 Y7.9412
G01 X53.3347 Y7.9643
G01 X53.3197 Y7.9747
G01 X53.3050 Y7.9856
G01 X53.2936 Y7.9932
G01 X53.2738 Y8.0057
G01 X53.2579 Y8.0146
G01 X53.2423 Y8.0240
G01 X53.2155 Y8.0381
G01 X48.1355 Y10.5527
G01 X48.1121 Y10.5630
G01 X48.0952 Y10.5710
G01 X48.0825 Y10.5762
G01 X48.0615 Y10.5843
G01 X48.0437 Y10.5901
G01 X48.0261 Y10.5963
G01 X47.9913 Y10.6063
G01 X47.9730 Y10.6103
G01 X47.9549 Y10.6148
G01 X47.9328 Y10.6190
G01 X47.9193 Y10.6213
G01 X47.9007 Y10.6234
G01 X47.8822 Y10.6261
G01 X47.8685 Y10.6275
G01 X47.8461 Y10.6291
G01 X47.8274 Y10.6294
G01 X47.8019 Y10.6305
G01 X6.3209 Y10.5801
G00 Z2.0000
G00 X6.3205 Y13.1204
G01 F60.00
G01 Z-0.2000
G01 F120.00
G01 X6.3025 Y13.1368
G01 X6.2919 Y13.1455
G01 X6.2243 Y13.1956
G01 X6.2129 Y13.2033
G01 X6.1406 Y13.2466
G01 X6.1285 Y13.2530
G01 X6.0524 Y13.2890
G01 X6.0397 Y13.2943
G01 X5.9604 Y13.3227
G01 X5.9473 Y13.3267
G01 X5.8656 Y13.3471
G01 X5.8521 Y13.3498
G01 X5.7688 Y13.3621
G01 X5.7552 Y13.3635
G01 X5.6711 Y13.3676
G01 X5.6573 Y13.3676
G01 X5.5732 Y13.3635
G01 X5.5596 Y13.3621
G01 X5.4763 Y13.3498
G01 X5.4628 Y13.3471
G01 X5.3811 Y13.3267
G01 X5.3680 Y13.3227
G01 X5.2887 Y13.2943
G01 X5.2760 Y13.2890
G01 X5.1999 Y13.2530
G01 X5.1878 Y13.2466
G01 X5.1155 Y13.2033
G01 X5.1041 Y13.1956
G01 X5.0365 Y13.1455
G01 X5.0259 Y13.1368
G01 X4.9635 Y13.0802
G01 X4.9538 Y13.0705
G01 X4.8972 Y13.0081
G01 X4.8885 Y12.9975
G01 X4.8384 Y12.9299
G01 X4.8307 Y12.9185
G01 X4.7874 Y12.8462
G01 X4.7810 Y12.8341
G01 X4.7450 Y12.7580
G01 X4.7397 Y12.7453
G01 X4.7113 Y12.6660
G01 X4.7073 Y12.6529
G01 X4.6869 Y12.5712
G01 X4.6842 Y12.5577
G01 X4.6719 Y12.4744
G01 X4.6705 Y12.4608
G01 X4.6664 Y12.3767
G01 X4.6664 Y12.3629
G01 X4.6705 Y12.2788
G01 X4.6719 Y12.2652
G01 X4.6842 Y12.1819
G01 X4.6869 Y12.1684
G01 X4.7073 Y12.0867
G01 X4.7113 Y12.0736
G01 X4.7397 Y11.9943
G01 X4.7450 Y11.9816
G01 X4.7810 Y11.9055
G01 X4.7874 Y11.8934
G01 X4.8307 Y11.8211
G01 X4.8384 Y11.8097
G01 X4.8885 Y11.7421
G01 X4.8972 Y11.7315
G01 X4.9538 Y11.6691
G01 X4.9635 Y11.6594
G01 X5.0259 Y11.6028
G01 X5.0365 Y11.5941
G01 X5.1041 Y11.5440
G01 X5.1155 Y11.5363
G01 X5.1878 Y11.4930
G01 X5.1999 Y11.4866
G01 X5.2760 Y11.4506
G01 X5.2887 Y11.4453
G01 X5.3680 Y11.4169
G01 X5.3811 Y11.4129
G01 X5.4628 Y11.3925
G01 X5.4763 Y11.3898
G01 X5.5596 Y11.3775
G01 X5.5732 Y11.3761
G01 X5.6573 Y11.3720
G01 X5.6711 Y11.3720
G01 X5.7552 Y11.3761
G01 X5.7688 Y11.3775
G01 X5.8521 Y11.3898
G01 X5.8656 Y11.3925
G01 X5.9473 Y11.4129
G01 X5.9604 Y11.4169
G01 X6.0397 Y11.4453
G01 X6.0524 Y11.4506
G01 X6.1285 Y11.4866
G01 X6.1406 Y11.4930
G01 X6.2129 Y11.5363
G01 X6.2243 Y11.5440
G01 X6.2919 Y11.5941
G01 X6.3025 Y11.6028
G01 X6.3222 Y11.6206
G01 X39.4913 Y11.6953
G01 X39.5310 Y11.6515
G01 X39.5407 Y11.6418
G01 X39.6128 Y11.5765
G01 X39.6234 Y11.5678
G01 X39.7015 Y11.5099
G01 X39.7129 Y11.5023
G01 X39.7963 Y11.4523
G01 X39.8084 Y11.4458
G01 X39.8963 Y11.4042
G01 X39.9090 Y11.3990
G01 X40.0005 Y11.3662
G01 X40.0136 Y11.3623
G01 X40.1079 Y11.3386
G01 X40.1214 Y11.3360
G01 X40.2176 Y11.3217
G01 X40.2312 Y11.3203
G01 X40.3283 Y11.3156
G01 X40.3421 Y11.3156
G01 X40.4392 Y11.3203
G01 X40.4528 Y11.3217
G01 X40.5490 Y11.3360
G01 X40.5625 Y11.3386
G01 X40.6568 Y11.3623
G01 X40.6699 Y11.3662
G01 X40.7614 Y11.3990
G01 X40.7741 Y11.4042
G01 X40.8620 Y11.4458
G01 X40.8741 Y11.4523
G01 X40.9575 Y11.5023
G01 X40.9689 Y11.5099
G01 X41.0470 Y11.5678
G01 X41.0576 Y11.5765
G01 X41.1297 Y11.6418
G01 X41.1394 Y11.6515
G01 X41.2047 Y11.7236
G01 X41.2134 Y11.7342
G01 X41.2713 Y11.8123
G01 X41.2789 Y11.8237
G01 X41.3289 Y11.9071
G01 X41.3354 Y11.9192
G01 X41.3770 Y12.0071
G01 X41.3822 Y12.0198
G01 X41.4150 Y12.1113
G01 X41.4189 Y12.1244
G01 X41.4426 Y12.2187
G01 X41.4452 Y12.2322
G01 X41.4595 Y12.3284
G01 X41.4609 Y12.3420
G01 X41.4656 Y12.4391
G01 X41.4656 Y12.4529
G01 X41.4609 Y12.5500
G01 X41.4595 Y12.5636
G01 X41.4452 Y12.6598
G01 X41.4426 Y12.6733
G01 X41.4189 Y12.7676
G01 X41.4150 Y12.7807
G01 X41.3822 Y12.8722
G01 X41.3770 Y12.8849
G01 X41.3354 Y12.9728
G01 X41.3289 Y12.9849
G01 X41.2789 Y13.0683
G01 X41.2713 Y13.0797
G01 X41.2134 Y13.1578
G01 X41.2047 Y13.1684
G01 X41.1394 Y13.2405
G01 X41.1297 Y13.2502
G01 X41.0576 Y13.3155
G01 X41.0470 Y13.3242
G01 X40.9689 Y13.3821
G01 X40.9575 Y13.3897
G01 X40.8741 Y13.4397
G01 X40.8620 Y13.4462
G01 X40.7741 Y13.4878
G01 X40.7614 Y13.4930
G01 X40.6699 Y13.5258
G01 X40.6568 Y13.5297
G01 X40.5625 Y13.5534
G01 X40.5490 Y13.5560
G01 X40.4528 Y13.5703
G01 X40.4392 Y13.5717
G01 X40.3421 Y13.5764
G01 X40.3283 Y13.5764
G01 X40.2312 Y13.5717
G01 X40.2176 Y13.5703
G01 X40.1214 Y13.5560
G01 X40.1079 Y13.5534
G01 X40.0136 Y13.5297
G01 X40.0005 Y13.5258
G01 X39.9090 Y13.4930
G01 X39.8963 Y13.4878
G01 X39.8084 Y13.4462
G01 X39.7963 Y13.4397
G01 X39.7129 Y13.3897
G01 X39.7015 Y13.3821
G01 X39.6234 Y13.3242
G01 X39.6128 Y13.3155
G01 X39.5407 Y13.2502
G01 X39.5310 Y13.2405
G01 X39.4899 Y13.1951
G01 X6.3205 Y13.1204
G00 Z2.0000
G00 X6.3211 Y15.6599
G01 F60.00
G01 Z-0.2000
G01 F120.00
G01 X6.3025 Y15.6768
G01 X6.2919 Y15.6855
G01 X6.2243 Y15.7356
G01 X6.2129 Y15.7433
G01 X6.1406 Y15.7866
G01 X6.1285 Y15.7930
G01 X6.0524 Y15.8290
G01 X6.0397 Y15.8343
G01 X5.9604 Y15.8627
G01 X5.9473 Y15.8667
G01 X5.8656 Y15.8871
G01 X5.8521 Y15.8898
G01 X5.7688 Y15.9021
G01 X5.7552 Y15.9035
G01 X5.6711 Y15.9076
G01 X5.6573 Y15.9076
G01 X5.5732 Y15.9035
G01 X5.5596 Y15.9021
G01 X5.4763 Y15.8898
G01 X5.4628 Y15.8871
G01 X5.3811 Y15.8667
G01 X5.3680 Y15.8627
G01 X5.2887 Y15.8343
G01 X5.2760 Y15.8290
G01 X5.1999 Y15.7930
G01 X5.1878 Y15.7866
G01 X5.1155 Y15.7433
G01 X5.1041 Y15.7356
G01 X5.0365 Y15.6855
G01 X5.0259 Y15.6768
G01 X4.9635 Y15.6202
G01 X4.9538 Y15.6105
G01 X4.8972 Y15.5481
G01 X4.8885 Y15.5375
G01 X4.8384 Y15.4699
G01 X4.8307 Y15.4585
G01 X4.7874 Y15.3862
G01 X4.7810 Y15.3741
G01 X4.7450 Y15.2980
G01 X4.7397 Y15.2853
