(G-CODE GENERATED BY FLATCAM v8.991 - www.flatcam.org - Version Date: 2019/12/27)

(Name: Cutout)
(Type: G-code from Geometry)
(Units: MM)

(Created on Thursday, 19 February 2026 at 09:29)

(TOOL DIAMETER: 1.4 mm)
(Feedrate: 120.0 mm/min)
(Feedrate_Z: 60.0 mm/min)
(Feedrate rapids 1500.0 mm/min)

(Z_Cut: -2.0 mm)
(DepthPerCut: 0.6 mm <=>4 passes)
(Z_Move: 2.0 mm)
(Z Toolchange: 15.0 mm)
(X,Y Toolchange: 0.0000, 0.0000 mm)
(Z Start: None mm)
(Z End: 15.0 mm)
(Steps per circle: 64)
(Preprocessor Geometry: default)

(X range:   -0.9383 ...   57.2950  mm)
(Y range:   -0.8875 ...   31.9204  mm)

(Spindle Speed: 2000 RPM)
G21
G90
G94




G01 F120.00
G00 Z2.0000

M03 S2000
G00 X-0.9383 Y14.8164
G01 F60.00
G01 Z-0.6000
G01 F120.00
G01 X-0.9383 Y0.8125
G01 X-0.9301 Y0.6459
G01 X-0.9056 Y0.4808
G01 X-0.8651 Y0.3190
G01 X-0.8089 Y0.1619
G01 X-0.7376 Y0.0111
G01 X-0.6518 Y-0.1320
G01 X-0.5524 Y-0.2660
G01 X-0.4404 Y-0.3896
G01 X-0.3168 Y-0.5016
G01 X-0.1828 Y-0.6010
G01 X-0.0397 Y-0.6868
G01 X0.1111 Y-0.7581
G01 X0.2682 Y-0.8143
G01 X0.4300 Y-0.8548
G01 X0.5951 Y-0.8793
G01 X0.7617 Y-0.8875
G01 X27.4783 Y-0.8875
G00 X27.4783 Y-0.8875
G01 F60.00
G01 Z-1.2000
G01 F120.00
G01 X0.7617 Y-0.8875
G01 X0.5951 Y-0.8793
G01 X0.4300 Y-0.8548
G01 X0.2682 Y-0.8143
G01 X0.1111 Y-0.7581
G01 X-0.0397 Y-0.6868
G01 X-0.1828 Y-0.6010
G01 X-0.3168 Y-0.5016
G01 X-0.4404 Y-0.3896
G01 X-0.5524 Y-0.2660
G01 X-0.6518 Y-0.1320
G01 X-0.7376 Y0.0111
G01 X-0.8089 Y0.1619
G01 X-0.8651 Y0.3190
G01 X-0.9056 Y0.4808
G01 X-0.9301 Y0.6459
G01 X-0.9383 Y0.8125
G01 X-0.9383 Y14.8164
G00 X-0.9383 Y14.8164
G01 F60.00
G01 Z-1.8000
G01 F120.00
G01 X-0.9383 Y0.8125
G01 X-0.9301 Y0.6459
G01 X-0.9056 Y0.4808
G01 X-0.8651 Y0.3190
G01 X-0.8089 Y0.1619
G01 X-0.7376 Y0.0111
G01 X-0.6518 Y-0.1320
G01 X-0.5524 Y-0.2660
G01 X-0.4404 Y-0.3896
G01 X-0.3168 Y-0.5016
G01 X-0.1828 Y-0.6010
G01 X-0.0397 Y-0.6868
G01 X0.1111 Y-0.7581
G01 X0.2682 Y-0.8143
G01 X0.4300 Y-0.8548
G01 X0.5951 Y-0.8793
G01 X0.7617 Y-0.8875
G01 X27.4783 Y-0.8875
G00 X27.4783 Y-0.8875
G01 F60.00
G01 Z-2.0000
G01 F120.00
G01 X0.7617 Y-0.8875
G01 X0.5951 Y-0.8793
G01 X0.4300 Y-0.8548
G01 X0.2682 Y-0.8143
G01 X0.1111 Y-0.7581
G01 X-0.0397 Y-0.6868
G01 X-0.1828 Y-0.6010
G01 X-0.3168 Y-0.5016
G01 X-0.4404 Y-0.3896
G01 X-0.5524 Y-0.2660
G01 X-0.6518 Y-0.1320
G01 X-0.7376 Y0.0111
G01 X-0.8089 Y0.1619
G01 X-0.8651 Y0.3190
G01 X-0.9056 Y0.4808
G01 X-0.9301 Y0.6459
G01 X-0.9383 Y0.8125
G01 X-0.9383 Y14.8164
G00 Z2.0000
G00 X-0.9383 Y18.2164
G01 F60.00
G01 Z-0.6000
G01 F120.00
G01 X-0.9383 Y30.2204
G01 X-0.9301 Y30.3870
G01 X-0.9056 Y30.5521
G01 X-0.8651 Y30.7139
G01 X-0.8089 Y30.8710
G01 X-0.7376 Y31.0218
G01 X-0.6518 Y31.1649
G01 X-0.5524 Y31.2989
G01 X-0.4404 Y31.4225
G01 X-0.3168 Y31.5345
G01 X-0.1828 Y31.6339
G01 X-0.0397 Y31.7197
G01 X0.1111 Y31.7910
G01 X0.2682 Y31.8472
G01 X0.4300 Y31.8877
G01 X0.5951 Y31.9122
G01 X0.7617 Y31.9204
G01 X27.4783 Y31.9204
G00 X27.4783 Y31.9204
G01 F60.00
G01 Z-1.2000
G01 F120.00
G01 X0.7617 Y31.9204
G01 X0.5951 Y31.9122
G01 X0.4300 Y31.8877
G01 X0.2682 Y31.8472
G01 X0.1111 Y31.7910
G01 X-0.0397 Y31.7197
G01 X-0.1828 Y31.6339
G01 X-0.3168 Y31.5345
G01 X-0.4404 Y31.4225
G01 X-0.5524 Y31.2989
G01 X-0.6518 Y31.1649
G01 X-0.7376 Y31.0218
G01 X-0.8089 Y30.8710
G01 X-0.8651 Y30.7139
G01 X-0.9056 Y30.5521
G01 X-0.9301 Y30.3870
G01 X-0.9383 Y30.2204
G01 X-0.9383 Y18.2164
G00 X-0.9383 Y18.2164
G01 F60.00
G01 Z-1.8000
G01 F120.00
G01 X-0.9383 Y30.2204
G01 X-0.9301 Y30.3870
G01 X-0.9056 Y30.5521
G01 X-0.8651 Y30.7139
G01 X-0.8089 Y30.8710
G01 X-0.7376 Y31.0218
G01 X-0.6518 Y31.1649
G01 X-0.5524 Y31.2989
G01 X-0.4404 Y31.4225
G01 X-0.3168 Y31.5345
G01 X-0.1828 Y31.6339
G01 X-0.0397 Y31.7197
G01 X0.1111 Y31.7910
G01 X0.2682 Y31.8472
G01 X0.4300 Y31.8877
G01 X0.5951 Y31.9122
G01 X0.7617 Y31.9204
G01 X27.4783 Y31.9204
G00 X27.4783 Y31.9204
G01 F60.00
G01 Z-2.0000
G01 F120.00
G01 X0.7617 Y31.9204
G01 X0.5951 Y31.9122
G01 X0.4300 Y31.8877
G01 X0.2682 Y31.8472
G01 X0.1111 Y31.7910
G01 X-0.0397 Y31.7197
G01 X-0.1828 Y31.6339
G01 X-0.3168 Y31.5345
G01 X-0.4404 Y31.4225
G01 X-0.5524 Y31.2989
G01 X-0.6518 Y31.1649
G01 X-0.7376 Y31.0218
G01 X-0.8089 Y30.8710
G01 X-0.8651 Y30.7139
G01 X-0.9056 Y30.5521
G01 X-0.9301 Y30.3870
G01 X-0.9383 Y30.2204
G01 X-0.9383 Y18.2164
G00 Z2.0000
G00 X30.8783 Y31.9204
G01 F60.00
G01 Z-0.6000
G01 F120.00
G01 X55.5950 Y31.9204
G01 X55.7616 Y31.9122
G01 X55.9267 Y31.8877
G01 X56.0885 Y31.8472
G01 X56.2456 Y31.7910
G01 X56.3964 Y31.7197
G01 X56.5395 Y31.6339
G01 X56.6735 Y31.5345
G01 X56.7971 Y31.4225
G01 X56.9091 Y31.2989
G01 X57.0085 Y31.1649
G01 X57.0943 Y31.0218
G01 X57.1656 Y30.8710
G01 X57.2218 Y30.7139
G01 X57.2623 Y30.5521
G01 X57.2868 Y30.3870
G01 X57.2950 Y30.2204
G01 X57.2950 Y18.2164
G00 X57.2950 Y18.2164
G01 F60.00
G01 Z-1.2000
G01 F120.00
G01 X57.2950 Y30.2204
G01 X57.2868 Y30.3870
G01 X57.2623 Y30.5521
G01 X57.2218 Y30.7139
G01 X57.1656 Y30.8710
G01 X57.0943 Y31.0218
G01 X57.0085 Y31.1649
G01 X56.9091 Y31.2989
G01 X56.7971 Y31.4225
G01 X56.6735 Y31.5345
G01 X56.5395 Y31.6339
G01 X56.3964 Y31.7197
G01 X56.2456 Y31.7910
G01 X56.0885 Y31.8472
G01 X55.9267 Y31.8877
G01 X55.7616 Y31.9122
G01 X55.5950 Y31.9204
G01 X30.8783 Y31.9204
G00 X30.8783 Y31.9204
G01 F60.00
G01 Z-1.8000
G01 F120.00
G01 X55.5950 Y31.9204
G01 X55.7616 Y31.9122
G01 X55.9267 Y31.8877
G01 X56.0885 Y31.8472
G01 X56.2456 Y31.7910
G01 X56.3964 Y31.7197
G01 X56.5395 Y31.6339
G01 X56.6735 Y31.5345
G01 X56.7971 Y31.4225
G01 X56.9091 Y31.2989
G01 X57.0085 Y31.1649
G01 X57.0943 Y31.0218
G01 X57.1656 Y30.8710
G01 X57.2218 Y30.7139
G01 X57.2623 Y30.5521
G01 X57.2868 Y30.3870
G01 X57.2950 Y30.2204
G01 X57.2950 Y18.2164
G00 X57.2950 Y18.2164
G01 F60.00
G01 Z-2.0000
G01 F120.00
G01 X57.2950 Y30.2204
G01 X57.2868 Y30.3870
G01 X57.2623 Y30.5521
G01 X57.2218 Y30.7139
G01 X57.1656 Y30.8710
G01 X57.0943 Y31.0218
G01 X57.0085 Y31.1649
G01 X56.9091 Y31.2989
G01 X56.7971 Y31.4225
G01 X56.6735 Y31.5345
G01 X56.5395 Y31.6339
G01 X56.3964 Y31.7197
G01 X56.2456 Y31.7910
G01 X56.0885 Y31.8472
G01 X55.9267 Y31.8877
G01 X55.7616 Y31.9122
G01 X55.5950 Y31.9204
G01 X30.8783 Y31.9204
G00 Z2.0000
G00 X57.2950 Y14.8164
G01 F60.00
G01 Z-0.6000
G01 F120.00
G01 X57.2950 Y0.8125
G01 X57.2868 Y0.6459
G01 X57.2623 Y0.4808
G01 X57.2218 Y0.3190
G01 X57.1656 Y0.1619
G01 X57.0943 Y0.0111
G01 X57.0085 Y-0.1320
G01 X56.9091 Y-0.2660
G01 X56.7971 Y-0.3896
G01 X56.6735 Y-0.5016
G01 X56.5395 Y-0.6010
G01 X56.3964 Y-0.6868
G01 X56.2456 Y-0.7581
G01 X56.0885 Y-0.8143
G01 X55.9267 Y-0.8548
G01 X55.7616 Y-0.8793
G01 X55.5950 Y-0.8875
G00 X55.5950 Y-0.8875
G01 F60.00
G01 Z-1.2000
G01 F120.00
G01 X55.7616 Y-0.8793
G01 X55.9267 Y-0.8548
G01 X56.0885 Y-0.8143
G01 X56.2456 Y-0.7581
G01 X56.3964 Y-0.6868
G01 X56.5395 Y-0.6010
G01 X56.6735 Y-0.5016
G01 X56.7971 Y-0.3896
G01 X56.9091 Y-0.2660
G01 X57.0085 Y-0.1320
G01 X57.0943 Y0.0111
G01 X57.1656 Y0.1619
G01 X57.2218 Y0.3190
G01 X57.2623 Y0.4808
G01 X57.2868 Y0.6459
G01 X57.2950 Y0.8125
G01 X57.2950 Y14.8164
G00 X57.2950 Y14.8164
G01 F60.00
G01 Z-1.8000
G01 F120.00
G01 X57.2950 Y0.8125
G01 X57.2868 Y0.6459
G01 X57.2623 Y0.4808
G01 X57.2218 Y0.3190
G01 X57.1656 Y0.1619
G01 X57.0943 Y0.0111
G01 X57.0085 Y-0.1320
G01 X56.9091 Y-0.2660
G01 X56.7971 Y-0.3896
G01 X56.6735 Y-0.5016
G01 X56.5395 Y-0.6010
G01 X56.3964 Y-0.6868
G01 X56.2456 Y-0.7581
G01 X56.0885 Y-0.8143
G01 X55.9267 Y-0.8548
G01 X55.7616 Y-0.8793
G01 X55.5950 Y-0.8875
G00 X55.5950 Y-0.8875
G01 F60.00
G01 Z-2.0000
G01 F120.00
G01 X55.7616 Y-0.8793
G01 X55.9267 Y-0.8548
G01 X56.0885 Y-0.8143
G01 X56.2456 Y-0.7581
G01 X56.3964 Y-0.6868
G01 X56.5395 Y-0.6010
G01 X56.6735 Y-0.5016
G01 X56.7971 Y-0.3896
G01 X56.9091 Y-0.2660
G01 X57.0085 Y-0.1320
G01 X57.0943 Y0.0111
G01 X57.1656 Y0.1619
G01 X57.2218 Y0.3190
G01 X57.2623 Y0.4808
G01 X57.2868 Y0.6459
G01 X57.2950 Y0.8125
G01 X57.2950 Y14.8164
G00 Z2.0000
G00 X55.5950 Y-0.8875
G01 F60.00
G01 Z-0.6000
G01 F120.00
G01 X30.8783 Y-0.8875
G00 X30.8783 Y-0.8875
G01 F60.00
G01 Z-1.2000
G01 F120.00
G01 X55.5950 Y-0.8875
G00 X55.5950 Y-0.8875
G01 F60.00
G01 Z-1.8000
G01 F120.00
G01 X30.8783 Y-0.8875
G00 X30.8783 Y-0.8875
G01 F60.00
G01 Z-2.0000
G01 F120.00
G01 X55.5950 Y-0.8875
G00 Z2.0000
M05
G00 Z2.0000
G00 Z15.00
G00 X0.0 Y0.0

