(G-CODE GENERATED BY FLATCAM v8.991 - www.flatcam.org - Version Date: 2019/12/27)

(Name: drill)
(Type: G-code from Excellon)
(Units: MM)

(Created on Thursday, 19 February 2026 at 09:28)

(Feedrate: 50.0 mm/min)
(Feedrate rapids 1500.0 mm/min)

(Z_Cut: -2.0 mm)
(Z_Move: 2.0 mm)
(Z Toolchange: 15.0 mm)
(X,Y Toolchange: 0.0000, 0.0000 mm)
(Z Start: None mm)
(Z End: 0.5 mm)
(Steps per circle: 64)
(Preprocessor Excellon: default)

(X range:    3.5768 ...   55.0794  mm)
(Y range:    1.3103 ...   27.4103  mm)

(Spindle Speed: 2000.0 RPM)
G21
G90
G94




G01 F50.00
G00 Z2.0000

M03 S2000.0
G00 X34.4094 Y21.9803
G01 Z-2.0000
G01 Z0
G00 Z2.0000
G00 X54.7294 Y27.0603
G01 Z-2.0000
G01 Z0
G00 Z2.0000
G00 X52.1894 Y27.0603
G01 Z-2.0000
G01 Z0
G00 Z2.0000
G00 X49.6494 Y27.0603
G01 Z-2.0000
G01 Z0
G00 Z2.0000
G00 X47.1094 Y27.0603
G01 Z-2.0000
G01 Z0
G00 Z2.0000
G00 X44.5694 Y27.0603
G01 Z-2.0000
G01 Z0
G00 Z2.0000
G00 X42.0294 Y27.0603
G01 Z-2.0000
G01 Z0
G00 Z2.0000
G00 X39.4894 Y27.0603
G01 Z-2.0000
G01 Z0
G00 Z2.0000
G00 X36.9494 Y27.0603
G01 Z-2.0000
G01 Z0
G00 Z2.0000
G00 X34.4094 Y27.0603
G01 Z-2.0000
G01 Z0
G00 Z2.0000
G00 X31.8694 Y27.0603
G01 Z-2.0000
G01 Z0
G00 Z2.0000
G00 X29.3294 Y27.0603
G01 Z-2.0000
G01 Z0
G00 Z2.0000
G00 X26.7894 Y27.0603
G01 Z-2.0000
G01 Z0
G00 Z2.0000
G00 X24.2494 Y27.0603
G01 Z-2.0000
G01 Z0
G00 Z2.0000
G00 X21.7094 Y27.0603
G01 Z-2.0000
G01 Z0
G00 Z2.0000
G00 X19.1694 Y27.0603
G01 Z-2.0000
G01 Z0
G00 Z2.0000
G00 X16.6294 Y27.0603
G01 Z-2.0000
G01 Z0
G00 Z2.0000
G00 X14.0894 Y27.0603
G01 Z-2.0000
G01 Z0
G00 Z2.0000
G00 X11.5494 Y27.0603
G01 Z-2.0000
G01 Z0
G00 Z2.0000
G00 X9.0094 Y27.0603
G01 Z-2.0000
G01 Z0
G00 Z2.0000
G00 X6.4668 Y21.9803
G01 Z-2.0000
G01 Z0
G00 Z2.0000
G00 X6.4668 Y1.6603
G01 Z-2.0000
G01 Z0
G00 Z2.0000
G00 X9.0094 Y1.6603
G01 Z-2.0000
G01 Z0
G00 Z2.0000
G00 X11.5494 Y1.6603
G01 Z-2.0000
G01 Z0
G00 Z2.0000
G00 X14.0894 Y1.6603
G01 Z-2.0000
G01 Z0
G00 Z2.0000
G00 X16.6294 Y1.6603
G01 Z-2.0000
G01 Z0
G00 Z2.0000
G00 X19.1694 Y1.6603
G01 Z-2.0000
G01 Z0
G00 Z2.0000
G00 X21.7094 Y1.6603
G01 Z-2.0000
G01 Z0
G00 Z2.0000
G00 X24.2494 Y1.6603
G01 Z-2.0000
G01 Z0
G00 Z2.0000
G00 X26.7894 Y1.6603
G01 Z-2.0000
G01 Z0
G00 Z2.0000
G00 X29.3294 Y1.6603
G01 Z-2.0000
G01 Z0
G00 Z2.0000
G00 X31.8694 Y1.6603
G01 Z-2.0000
G01 Z0
G00 Z2.0000
G00 X34.4094 Y1.6603
G01 Z-2.0000
G01 Z0
G00 Z2.0000
G00 X36.9494 Y1.6603
G01 Z-2.0000
G01 Z0
G00 Z2.0000
G00 X39.4894 Y1.6603
G01 Z-2.0000
G01 Z0
G00 Z2.0000
G00 X42.0294 Y1.6603
G01 Z-2.0000
G01 Z0
G00 Z2.0000
G00 X44.5694 Y1.6603
G01 Z-2.0000
G01 Z0
G00 Z2.0000
G00 X47.1094 Y1.6603
G01 Z-2.0000
G01 Z0
G00 Z2.0000
G00 X49.6494 Y1.6603
G01 Z-2.0000
G01 Z0
G00 Z2.0000
G00 X52.1894 Y1.6603
G01 Z-2.0000
G01 Z0
G00 Z2.0000
G00 X54.7294 Y1.6603
G01 Z-2.0000
G01 Z0
G00 Z2.0000
G00 X34.4094 Y14.3603
G01 Z-2.0000
G01 Z0
G00 Z2.0000
M05
G00 Z0.50
G00 X0.0 Y0.0

