(G-CODE GENERATED BY FLATCAM v8.991 - www.flatcam.org - Version Date: 2019/12/27)

(Name: drill)
(Type: G-code from Excellon)
(Units: MM)

(Created on Thursday, 19 February 2026 at 09:28)

(Feedrate: 50.0 mm/min)
(Feedrate rapids 1500.0 mm/min)

(Z_Cut: -2.0 mm)
(Z_Move: 2.0 mm)
(Z Toolchange: 15.0 mm)
(X,Y Toolchange: 0.0000, 0.0000 mm)
(Z Start: None mm)
(Z End: 0.5 mm)
(Steps per circle: 64)
(Preprocessor Excellon: default)

(X range:    3.5768 ...   55.0794  mm)
(Y range:    1.3103 ...   27.4103  mm)

(Spindle Speed: 2000.0 RPM)
G21
G90
G94




G01 F50.00
G00 Z2.0000

M03 S2000.0
G00 X3.9268 Y21.9803
G01 Z-2.0000
G01 Z0
G00 Z2.0000
G00 X3.9268 Y19.4403
G01 Z-2.0000
G01 Z0
G00 Z2.0000
G00 X3.9268 Y16.9003
G01 Z-2.0000
G01 Z0
G00 Z2.0000
G00 X3.9268 Y14.3603
G01 Z-2.0000
G01 Z0
G00 Z2.0000
G00 X3.9268 Y11.8203
G01 Z-2.0000
G01 Z0
G00 Z2.0000
G00 X3.9268 Y9.2803
G01 Z-2.0000
G01 Z0
G00 Z2.0000
G00 X3.9268 Y6.7403
G01 Z-2.0000
G01 Z0
G00 Z2.0000
G00 X3.9268 Y4.2003
G01 Z-2.0000
G01 Z0
G00 Z2.0000
M05
G00 Z0.50
G00 X0.0 Y0.0

