(G-CODE GENERATED BY FLATCAM v8.991 - www.flatcam.org - Version Date: 2019/12/27)

(Name: Top)
(Type: G-code from Geometry)
(Units: MM)

(Created on Thursday, 19 February 2026 at 09:27)

(TOOL DIAMETER: 0.1 mm)
(Feedrate: 120.0 mm/min)
(Feedrate_Z: 60.0 mm/min)
(Feedrate rapids 1500.0 mm/min)

(Z_Cut: -0.2 mm)
(Z_Move: 2.0 mm)
(Z Toolchange: 15.0 mm)
(X,Y Toolchange: 0.0000, 0.0000 mm)
(Z Start: None mm)
(Z End: 15.0 mm)
(Steps per circle: 64)
(Preprocessor Geometry: default)

(X range:    0.6217 ...   55.7348  mm)
(Y range:    0.6727 ...   30.3604  mm)

(Spindle Speed: 2000 RPM)
G21
G90
G94




G01 F120.00
G00 Z2.0000

M03 S2000
G00 X3.1871 Y3.5533
G01 F60.00
G01 Z-0.2000
G01 F120.00
G01 X3.1871 Y1.6705
G01 X3.1902 Y1.6038
G01 X3.1915 Y1.5902
G01 X3.2003 Y1.5310
G01 X3.2030 Y1.5175
G01 X3.2176 Y1.4594
G01 X3.2215 Y1.4463
G01 X3.2417 Y1.3899
G01 X3.2470 Y1.3772
G01 X3.2726 Y1.3231
G01 X3.2790 Y1.3110
G01 X3.3098 Y1.2597
G01 X3.3174 Y1.2483
G01 X3.3531 Y1.2002
G01 X3.3618 Y1.1896
G01 X3.4020 Y1.1452
G01 X3.4117 Y1.1355
G01 X3.4561 Y1.0953
G01 X3.4667 Y1.0866
G01 X3.5148 Y1.0509
G01 X3.5262 Y1.0433
G01 X3.5775 Y1.0125
G01 X3.5896 Y1.0060
G01 X3.6437 Y0.9805
G01 X3.6564 Y0.9752
G01 X3.7128 Y0.9550
G01 X3.7259 Y0.9510
G01 X3.7840 Y0.9365
G01 X3.7975 Y0.9338
G01 X3.8567 Y0.9250
G01 X3.8703 Y0.9237
G01 X3.9301 Y0.9208
G01 X5.8198 Y0.9206
G01 X5.8387 Y0.9035
G01 X5.8493 Y0.8948
G01 X5.9169 Y0.8446
G01 X5.9283 Y0.8370
G01 X6.0006 Y0.7937
G01 X6.0127 Y0.7873
G01 X6.0888 Y0.7513
G01 X6.1015 Y0.7460
G01 X6.1808 Y0.7176
G01 X6.1939 Y0.7136
G01 X6.2756 Y0.6932
G01 X6.2891 Y0.6905
G01 X6.3724 Y0.6781
G01 X6.3860 Y0.6768
G01 X6.4701 Y0.6727
G01 X6.4839 Y0.6727
G01 X6.5680 Y0.6768
G01 X6.5816 Y0.6781
G01 X6.6649 Y0.6905
G01 X6.6784 Y0.6932
G01 X6.7601 Y0.7136
G01 X6.7732 Y0.7176
G01 X6.8525 Y0.7460
G01 X6.8652 Y0.7513
G01 X6.9413 Y0.7873
G01 X6.9534 Y0.7937
G01 X7.0257 Y0.8370
G01 X7.0371 Y0.8446
G01 X7.1047 Y0.8948
G01 X7.1153 Y0.9035
G01 X7.1777 Y0.9601
G01 X7.1874 Y0.9698
G01 X7.2440 Y1.0322
G01 X7.2527 Y1.0428
G01 X7.3028 Y1.1104
G01 X7.3105 Y1.1218
G01 X7.3538 Y1.1941
G01 X7.3602 Y1.2062
G01 X7.3962 Y1.2823
G01 X7.4015 Y1.2950
G01 X7.4299 Y1.3743
G01 X7.4339 Y1.3874
G01 X7.4543 Y1.4691
G01 X7.4570 Y1.4826
G01 X7.4693 Y1.5659
G01 X7.4707 Y1.5795
G01 X7.4748 Y1.6636
G01 X7.4748 Y1.6774
G01 X7.4707 Y1.7615
G01 X7.4693 Y1.7751
G01 X7.4570 Y1.8584
G01 X7.4543 Y1.8719
G01 X7.4339 Y1.9536
G01 X7.4299 Y1.9667
G01 X7.4015 Y2.0460
G01 X7.3962 Y2.0587
G01 X7.3602 Y2.1348
G01 X7.3538 Y2.1469
G01 X7.3105 Y2.2191
G01 X7.3028 Y2.2306
G01 X7.2527 Y2.2982
G01 X7.2440 Y2.3088
G01 X7.1874 Y2.3712
G01 X7.1777 Y2.3809
G01 X7.1153 Y2.4375
G01 X7.1047 Y2.4462
G01 X7.0371 Y2.4963
G01 X7.0257 Y2.5040
G01 X6.9534 Y2.5473
G01 X6.9413 Y2.5537
G01 X6.8652 Y2.5897
G01 X6.8525 Y2.5950
G01 X6.7732 Y2.6234
G01 X6.7601 Y2.6274
G01 X6.6784 Y2.6478
G01 X6.6649 Y2.6505
G01 X6.5816 Y2.6628
G01 X6.5680 Y2.6642
G01 X6.4839 Y2.6683
G01 X6.4701 Y2.6683
G01 X6.3860 Y2.6642
G01 X6.3724 Y2.6628
G01 X6.2891 Y2.6505
G01 X6.2756 Y2.6478
G01 X6.1939 Y2.6274
G01 X6.1808 Y2.6234
G01 X6.1015 Y2.5950
G01 X6.0888 Y2.5897
G01 X6.0127 Y2.5537
G01 X6.0006 Y2.5473
G01 X5.9283 Y2.5040
G01 X5.9169 Y2.4963
G01 X5.8493 Y2.4462
G01 X5.8387 Y2.4375
G01 X5.8198 Y2.4204
G01 X4.6869 Y2.4204
G01 X4.6869 Y3.5533
G01 X4.7040 Y3.5722
G01 X4.7127 Y3.5828
G01 X4.7628 Y3.6504
G01 X4.7705 Y3.6618
G01 X4.8138 Y3.7341
G01 X4.8202 Y3.7462
G01 X4.8562 Y3.8223
G01 X4.8615 Y3.8350
G01 X4.8899 Y3.9143
G01 X4.8939 Y3.9274
G01 X4.9143 Y4.0091
G01 X4.9170 Y4.0226
G01 X4.9293 Y4.1059
G01 X4.9307 Y4.1195
G01 X4.9348 Y4.2036
G01 X4.9348 Y4.2174
G01 X4.9307 Y4.3015
G01 X4.9293 Y4.3151
G01 X4.9170 Y4.3984
G01 X4.9143 Y4.4119
G01 X4.8939 Y4.4936
G01 X4.8899 Y4.5067
G01 X4.8615 Y4.5860
G01 X4.8562 Y4.5987
G01 X4.8202 Y4.6748
G01 X4.8138 Y4.6869
G01 X4.7705 Y4.7591
G01 X4.7628 Y4.7706
G01 X4.7127 Y4.8382
G01 X4.7040 Y4.8488
G01 X4.6474 Y4.9112
G01 X4.6377 Y4.9209
G01 X4.5753 Y4.9775
G01 X4.5647 Y4.9862
G01 X4.4971 Y5.0363
G01 X4.4857 Y5.0440
G01 X4.4134 Y5.0873
G01 X4.4013 Y5.0937
G01 X4.3252 Y5.1297
G01 X4.3125 Y5.1350
G01 X4.2332 Y5.1634
G01 X4.2201 Y5.1674
G01 X4.1384 Y5.1878
G01 X4.1249 Y5.1905
G01 X4.0416 Y5.2028
G01 X4.0280 Y5.2042
G01 X3.9439 Y5.2083
G01 X3.9301 Y5.2083
G01 X3.8460 Y5.2042
G01 X3.8324 Y5.2028
G01 X3.7491 Y5.1905
G01 X3.7356 Y5.1878
G01 X3.6539 Y5.1674
G01 X3.6408 Y5.1634
G01 X3.5615 Y5.1350
G01 X3.5488 Y5.1297
G01 X3.4727 Y5.0937
G01 X3.4606 Y5.0873
G01 X3.3883 Y5.0440
G01 X3.3769 Y5.0363
G01 X3.3093 Y4.9862
G01 X3.2987 Y4.9775
G01 X3.2363 Y4.9209
G01 X3.2266 Y4.9112
G01 X3.1700 Y4.8488
G01 X3.1613 Y4.8382
G01 X3.1112 Y4.7706
G01 X3.1035 Y4.7591
G01 X3.0602 Y4.6869
G01 X3.0538 Y4.6748
G01 X3.0178 Y4.5987
G01 X3.0125 Y4.5860
G01 X2.9841 Y4.5067
G01 X2.9801 Y4.4936
G01 X2.9597 Y4.4119
G01 X2.9570 Y4.3984
G01 X2.9447 Y4.3151
G01 X2.9433 Y4.3015
G01 X2.9392 Y4.2174
G01 X2.9392 Y4.2036
G01 X2.9433 Y4.1195
G01 X2.9447 Y4.1059
G01 X2.9570 Y4.0226
G01 X2.9597 Y4.0091
G01 X2.9801 Y3.9274
G01 X2.9841 Y3.9143
G01 X3.0125 Y3.8350
G01 X3.0178 Y3.8223
G01 X3.0538 Y3.7462
G01 X3.0602 Y3.7341
G01 X3.1035 Y3.6618
G01 X3.1112 Y3.6504
G01 X3.1613 Y3.5828
G01 X3.1700 Y3.5722
G01 X3.1871 Y3.5533
G00 Z2.0000
G00 X4.5922 Y5.9988
G01 F60.00
G01 Z-0.2000
G01 F120.00
G01 X8.2671 Y5.9792
G01 X8.2671 Y2.3277
G01 X8.2500 Y2.3088
G01 X8.2413 Y2.2982
G01 X8.1912 Y2.2306
G01 X8.1835 Y2.2191
G01 X8.1402 Y2.1469
G01 X8.1338 Y2.1348
G01 X8.0978 Y2.0587
G01 X8.0925 Y2.0460
G01 X8.0641 Y1.9667
G01 X8.0601 Y1.9536
G01 X8.0397 Y1.8719
G01 X8.0370 Y1.8584
G01 X8.0247 Y1.7751
G01 X8.0233 Y1.7615
G01 X8.0192 Y1.6774
G01 X8.0192 Y1.6636
G01 X8.0233 Y1.5795
G01 X8.0247 Y1.5659
G01 X8.0370 Y1.4826
G01 X8.0397 Y1.4691
G01 X8.0601 Y1.3874
G01 X8.0641 Y1.3743
G01 X8.0925 Y1.2950
G01 X8.0978 Y1.2823
G01 X8.1338 Y1.2062
G01 X8.1402 Y1.1941
G01 X8.1835 Y1.1218
G01 X8.1912 Y1.1104
G01 X8.2413 Y1.0428
G01 X8.2500 Y1.0322
G01 X8.3066 Y0.9698
G01 X8.3163 Y0.9601
G01 X8.3787 Y0.9035
G01 X8.3893 Y0.8948
G01 X8.4569 Y0.8446
G01 X8.4683 Y0.8370
G01 X8.5406 Y0.7937
G01 X8.5527 Y0.7873
G01 X8.6288 Y0.7513
G01 X8.6415 Y0.7460
G01 X8.7208 Y0.7176
G01 X8.7339 Y0.7136
G01 X8.8156 Y0.6932
G01 X8.8291 Y0.6905
G01 X8.9124 Y0.6781
G01 X8.9260 Y0.6768
G01 X9.0101 Y0.6727
G01 X9.0239 Y0.6727
G01 X9.1080 Y0.6768
G01 X9.1216 Y0.6781
G01 X9.2049 Y0.6905
G01 X9.2184 Y0.6932
G01 X9.3001 Y0.7136
G01 X9.3132 Y0.7176
G01 X9.3925 Y0.7460
G01 X9.4052 Y0.7513
G01 X9.4813 Y0.7873
G01 X9.4934 Y0.7937
G01 X9.5657 Y0.8370
G01 X9.5771 Y0.8446
G01 X9.6447 Y0.8948
G01 X9.6553 Y0.9035
G01 X9.7177 Y0.9601
G01 X9.7274 Y0.9698
G01 X9.7840 Y1.0322
G01 X9.7927 Y1.0428
G01 X9.8428 Y1.1104
G01 X9.8505 Y1.1218
G01 X9.8938 Y1.1941
G01 X9.9002 Y1.2062
G01 X9.9362 Y1.2823
G01 X9.9415 Y1.2950
G01 X9.9699 Y1.3743
G01 X9.9739 Y1.3874
G01 X9.9943 Y1.4691
G01 X9.9970 Y1.4826
G01 X10.0093 Y1.5659
G01 X10.0107 Y1.5795
G01 X10.0148 Y1.6636
G01 X10.0148 Y1.6774
G01 X10.0107 Y1.7615
G01 X10.0093 Y1.7751
G01 X9.9970 Y1.8584
G01 X9.9943 Y1.8719
G01 X9.9739 Y1.9536
G01 X9.9699 Y1.9667
G01 X9.9415 Y2.0460
G01 X9.9362 Y2.0587
G01 X9.9002 Y2.1348
G01 X9.8938 Y2.1469
G01 X9.8505 Y2.2191
G01 X9.8428 Y2.2306
G01 X9.7927 Y2.2982
G01 X9.7840 Y2.3088
G01 X9.7669 Y2.3277
G01 X9.7667 Y6.7320
G01 X9.7641 Y6.7878
G01 X9.7625 Y6.8054
G01 X9.7544 Y6.8607
G01 X9.7510 Y6.8781
G01 X9.7376 Y6.9323
G01 X9.7325 Y6.9493
G01 X9.7138 Y7.0019
G01 X9.7070 Y7.0184
G01 X9.6833 Y7.0689
G01 X9.6750 Y7.0846
G01 X9.6464 Y7.1326
G01 X9.6366 Y7.1473
G01 X9.6034 Y7.1923
G01 X9.5922 Y7.2060
G01 X9.5548 Y7.2475
G01 X9.5423 Y7.2601
G01 X9.5010 Y7.2977
G01 X9.4904 Y7.3065
G01 X9.4425 Y7.3424
G01 X9.4312 Y7.3501
G01 X9.3765 Y7.3831
G01 X9.3644 Y7.3895
G01 X9.3103 Y7.4151
G01 X9.2976 Y7.4204
G01 X9.2412 Y7.4406
G01 X9.2281 Y7.4445
G01 X9.1700 Y7.4591
G01 X9.1565 Y7.4618
G01 X9.0973 Y7.4705
G01 X9.0837 Y7.4719
G01 X9.0279 Y7.4748
G01 X4.5961 Y7.4986
G01 X4.5753 Y7.5175
G01 X4.5647 Y7.5262
G01 X4.4971 Y7.5763
G01 X4.4857 Y7.5840
G01 X4.4134 Y7.6273
G01 X4.4013 Y7.6337
G01 X4.3252 Y7.6697
G01 X4.3125 Y7.6750
G01 X4.2332 Y7.7034
G01 X4.2201 Y7.7074
G01 X4.1384 Y7.7278
G01 X4.1249 Y7.7305
G01 X4.0416 Y7.7428
G01 X4.0280 Y7.7442
G01 X3.9439 Y7.7483
G01 X3.9301 Y7.7483
G01 X3.8460 Y7.7442
G01 X3.8324 Y7.7428
G01 X3.7491 Y7.7305
G01 X3.7356 Y7.7278
G01 X3.6539 Y7.7074
G01 X3.6408 Y7.7034
G01 X3.5615 Y7.6750
G01 X3.5488 Y7.6697
G01 X3.4727 Y7.6337
G01 X3.4606 Y7.6273
G01 X3.3883 Y7.5840
G01 X3.3769 Y7.5763
G01 X3.3093 Y7.5262
G01 X3.2987 Y7.5175
G01 X3.2363 Y7.4609
G01 X3.2266 Y7.4512
G01 X3.1700 Y7.3888
G01 X3.1613 Y7.3782
G01 X3.1112 Y7.3106
G01 X3.1035 Y7.2991
G01 X3.0602 Y7.2269
G01 X3.0538 Y7.2148
G01 X3.0178 Y7.1387
G01 X3.0125 Y7.1260
G01 X2.9841 Y7.0467
G01 X2.9801 Y7.0336
G01 X2.9597 Y6.9519
G01 X2.9570 Y6.9384
G01 X2.9447 Y6.8551
G01 X2.9433 Y6.8415
G01 X2.9392 Y6.7574
G01 X2.9392 Y6.7436
G01 X2.9433 Y6.6595
G01 X2.9447 Y6.6459
G01 X2.9570 Y6.5626
G01 X2.9597 Y6.5491
G01 X2.9801 Y6.4674
G01 X2.9841 Y6.4543
G01 X3.0125 Y6.3750
G01 X3.0178 Y6.3623
G01 X3.0538 Y6.2862
G01 X3.0602 Y6.2741
G01 X3.1035 Y6.2018
G01 X3.1112 Y6.1904
G01 X3.1613 Y6.1228
G01 X3.1700 Y6.1122
G01 X3.2266 Y6.0498
G01 X3.2363 Y6.0401
G01 X3.2987 Y5.9835
G01 X3.3093 Y5.9748
G01 X3.3769 Y5.9246
G01 X3.3883 Y5.9170
G01 X3.4606 Y5.8737
G01 X3.4727 Y5.8673
G01 X3.5488 Y5.8313
G01 X3.5615 Y5.8260
G01 X3.6408 Y5.7976
G01 X3.6539 Y5.7936
G01 X3.7356 Y5.7732
G01 X3.7491 Y5.7705
G01 X3.8324 Y5.7581
G01 X3.8460 Y5.7568
G01 X3.9301 Y5.7527
G01 X3.9439 Y5.7527
G01 X4.0280 Y5.7568
G01 X4.0416 Y5.7581
G01 X4.1249 Y5.7705
G01 X4.1384 Y5.7732
G01 X4.2201 Y5.7936
G01 X4.2332 Y5.7976
G01 X4.3125 Y5.8260
G01 X4.3252 Y5.8313
G01 X4.4013 Y5.8673
G01 X4.4134 Y5.8737
G01 X4.4857 Y5.9170
G01 X4.4971 Y5.9246
G01 X4.5647 Y5.9748
G01 X4.5753 Y5.9835
G01 X4.5922 Y5.9988
G00 Z2.0000
G00 X4.5939 Y8.5404
G01 F60.00
G01 Z-0.2000
G01 F120.00
G01 X46.3671 Y8.5156
G01 X46.3671 Y2.3277
G01 X46.3500 Y2.3088
G01 X46.3413 Y2.2982
G01 X46.2912 Y2.2306
G01 X46.2835 Y2.2191
G01 X46.2402 Y2.1469
G01 X46.2338 Y2.1348
G01 X46.1978 Y2.0587
G01 X46.1925 Y2.0460
G01 X46.1641 Y1.9667
G01 X46.1601 Y1.9536
G01 X46.1397 Y1.8719
G01 X46.1370 Y1.8584
G01 X46.1247 Y1.7751
G01 X46.1233 Y1.7615
G01 X46.1192 Y1.6774
G01 X46.1192 Y1.6636
G01 X46.1233 Y1.5795
G01 X46.1247 Y1.5659
G01 X46.1370 Y1.4826
G01 X46.1397 Y1.4691
G01 X46.1601 Y1.3874
G01 X46.1641 Y1.3743
G01 X46.1925 Y1.2950
G01 X46.1978 Y1.2823
G01 X46.2338 Y1.2062
G01 X46.2402 Y1.1941
G01 X46.2835 Y1.1218
G01 X46.2912 Y1.1104
G01 X46.3413 Y1.0428
G01 X46.3500 Y1.0322
G01 X46.4066 Y0.9698
G01 X46.4163 Y0.9601
G01 X46.4787 Y0.9035
G01 X46.4893 Y0.8948
G01 X46.5569 Y0.8446
G01 X46.5683 Y0.8370
G01 X46.6406 Y0.7937
G01 X46.6527 Y0.7873
G01 X46.7288 Y0.7513
G01 X46.7415 Y0.7460
G01 X46.8208 Y0.7176
G01 X46.8339 Y0.7136
G01 X46.9156 Y0.6932
G01 X46.9291 Y0.6905
G01 X47.0124 Y0.6781
G01 X47.0260 Y0.6768
G01 X47.1101 Y0.6727
G01 X47.1239 Y0.6727
G01 X47.2080 Y0.6768
G01 X47.2216 Y0.6781
G01 X47.3049 Y0.6905
G01 X47.3184 Y0.6932
G01 X47.4001 Y0.7136
G01 X47.4132 Y0.7176
G01 X47.4925 Y0.7460
G01 X47.5052 Y0.7513
G01 X47.5813 Y0.7873
G01 X47.5934 Y0.7937
G01 X47.6657 Y0.8370
G01 X47.6771 Y0.8446
G01 X47.7447 Y0.8948
G01 X47.7553 Y0.9035
G01 X47.8177 Y0.9601
G01 X47.8274 Y0.9698
G01 X47.8840 Y1.0322
G01 X47.8927 Y1.0428
G01 X47.9428 Y1.1104
G01 X47.9505 Y1.1218
G01 X47.9938 Y1.1941
G01 X48.0002 Y1.2062
G01 X48.0362 Y1.2823
G01 X48.0415 Y1.2950
G01 X48.0699 Y1.3743
G01 X48.0739 Y1.3874
G01 X48.0943 Y1.4691
G01 X48.0970 Y1.4826
G01 X48.1093 Y1.5659
G01 X48.1107 Y1.5795
G01 X48.1148 Y1.6636
G01 X48.1148 Y1.6774
G01 X48.1107 Y1.7615
G01 X48.1093 Y1.7751
G01 X48.0970 Y1.8584
G01 X48.0943 Y1.8719
G01 X48.0739 Y1.9536
G01 X48.0699 Y1.9667
G01 X48.0415 Y2.0460
G01 X48.0362 Y2.0587
G01 X48.0002 Y2.1348
G01 X47.9938 Y2.1469
G01 X47.9505 Y2.2191
G01 X47.9428 Y2.2306
G01 X47.8927 Y2.2982
G01 X47.8840 Y2.3088
G01 X47.8669 Y2.3277
G01 X47.8669 Y9.2651
G01 X47.8633 Y9.3386
G01 X47.8526 Y9.4110
G01 X47.8366 Y9.4757
G01 X47.8325 Y9.4893
G01 X47.8125 Y9.5452
G01 X47.8070 Y9.5584
G01 X47.7784 Y9.6186
G01 X47.7407 Y9.6814
G01 X47.6969 Y9.7405
G01 X47.6523 Y9.7901
G01 X47.6423 Y9.8001
G01 X47.5983 Y9.8400
G01 X47.5873 Y9.8490
G01 X47.5337 Y9.8886
G01 X47.4709 Y9.9263
G01 X47.4043 Y9.9578
G01 X47.3416 Y9.9804
G01 X47.3281 Y9.9845
G01 X47.2704 Y9.9990
G01 X47.2565 Y10.0018
G01 X47.1905 Y10.0114
G01 X47.1174 Y10.0150
G01 X4.5944 Y10.0402
G01 X4.5753 Y10.0575
G01 X4.5647 Y10.0662
G01 X4.4971 Y10.1163
G01 X4.4857 Y10.1240
G01 X4.4134 Y10.1673
G01 X4.4013 Y10.1737
G01 X4.3252 Y10.2097
G01 X4.3125 Y10.2150
G01 X4.2332 Y10.2434
G01 X4.2201 Y10.2474
G01 X4.1384 Y10.2678
G01 X4.1249 Y10.2705
G01 X4.0416 Y10.2828
G01 X4.0280 Y10.2842
G01 X3.9439 Y10.2883
G01 X3.9301 Y10.2883
G01 X3.8460 Y10.2842
G01 X3.8324 Y10.2828
G01 X3.7491 Y10.2705
G01 X3.7356 Y10.2678
G01 X3.6539 Y10.2474
G01 X3.6408 Y10.2434
G01 X3.5615 Y10.2150
G01 X3.5488 Y10.2097
G01 X3.4727 Y10.1737
G01 X3.4606 Y10.1673
G01 X3.3883 Y10.1240
G01 X3.3769 Y10.1163
G01 X3.3093 Y10.0662
G01 X3.2987 Y10.0575
G01 X3.2363 Y10.0009
G01 X3.2266 Y9.9912
G01 X3.1700 Y9.9288
G01 X3.1613 Y9.9182
G01 X3.1112 Y9.8506
G01 X3.1035 Y9.8391
G01 X3.0602 Y9.7669
G01 X3.0538 Y9.7548
G01 X3.0178 Y9.6787
G01 X3.0125 Y9.6660
G01 X2.9841 Y9.5867
G01 X2.9801 Y9.5736
G01 X2.9597 Y9.4919
G01 X2.9570 Y9.4784
G01 X2.9447 Y9.3951
G01 X2.9433 Y9.3815
G01 X2.9392 Y9.2974
G01 X2.9392 Y9.2836
G01 X2.9433 Y9.1995
G01 X2.9447 Y9.1859
G01 X2.9570 Y9.1026
G01 X2.9597 Y9.0891
G01 X2.9801 Y9.0074
G01 X2.9841 Y8.9943
G01 X3.0125 Y8.9150
G01 X3.0178 Y8.9023
G01 X3.0538 Y8.8262
G01 X3.0602 Y8.8141
G01 X3.1035 Y8.7418
G01 X3.1112 Y8.7304
G01 X3.1613 Y8.6628
G01 X3.1700 Y8.6522
G01 X3.2266 Y8.5898
G01 X3.2363 Y8.5801
G01 X3.2987 Y8.5235
G01 X3.3093 Y8.5148
G01 X3.3769 Y8.4646
G01 X3.3883 Y8.4570
G01 X3.4606 Y8.4137
G01 X3.4727 Y8.4073
G01 X3.5488 Y8.3713
G01 X3.5615 Y8.3660
G01 X3.6408 Y8.3376
G01 X3.6539 Y8.3336
G01 X3.7356 Y8.3132
G01 X3.7491 Y8.3105
G01 X3.8324 Y8.2981
G01 X3.8460 Y8.2968
G01 X3.9301 Y8.2927
G01 X3.9439 Y8.2927
G01 X4.0280 Y8.2968
G01 X4.0416 Y8.2981
G01 X4.1249 Y8.3105
G01 X4.1384 Y8.3132
G01 X4.2201 Y8.3336
G01 X4.2332 Y8.3376
G01 X4.3125 Y8.3660
G01 X4.3252 Y8.3713
G01 X4.4013 Y8.4073
G01 X4.4134 Y8.4137
G01 X4.4857 Y8.4570
G01 X4.4971 Y8.4646
G01 X4.5647 Y8.5148
G01 X4.5753 Y8.5235
G01 X4.5939 Y8.5404
G00 Z2.0000
G00 X4.5939 Y11.0803
G01 F60.00
G01 Z-0.2000
G01 F120.00
G01 X34.3910 Y11.0552
G01 X34.4497 Y11.0576
G01 X34.4713 Y11.0596
G01 X34.5227 Y11.0669
G01 X34.5305 Y11.0683
G01 X34.5440 Y11.0710
G01 X34.5944 Y11.0833
G01 X34.6152 Y11.0894
G01 X34.6642 Y11.1066
G01 X34.6843 Y11.1148
G01 X34.7313 Y11.1367
G01 X34.7384 Y11.1404
G01 X34.7505 Y11.1468
G01 X34.7952 Y11.1732
G01 X34.8133 Y11.1852
G01 X34.8552 Y11.2158
G01 X34.8721 Y11.2295
G01 X34.9107 Y11.2641
G01 X34.9164 Y11.2697
G01 X34.9262 Y11.2794
G01 X34.9612 Y11.3176
G01 X34.9751 Y11.3343
G01 X35.0063 Y11.3758
G01 X35.0185 Y11.3937
G01 X35.0454 Y11.4381
G01 X35.0493 Y11.4451
G01 X35.0558 Y11.4572
G01 X35.0782 Y11.5039
G01 X35.0867 Y11.5239
G01 X35.1044 Y11.5727
G01 X35.1109 Y11.5934
G01 X35.1238 Y11.6437
G01 X35.1255 Y11.6515
G01 X35.1282 Y11.6649
G01 X35.1361 Y11.7162
G01 X35.1383 Y11.7378
G01 X35.1415 Y11.7965
G01 X35.1634 Y13.7095
G01 X35.1840 Y13.7322
G01 X35.1927 Y13.7428
G01 X35.2428 Y13.8104
G01 X35.2505 Y13.8218
G01 X35.2938 Y13.8941
G01 X35.3002 Y13.9062
G01 X35.3362 Y13.9823
G01 X35.3415 Y13.9950
G01 X35.3699 Y14.0743
G01 X35.3739 Y14.0874
G01 X35.3943 Y14.1691
G01 X35.3970 Y14.1826
G01 X35.4093 Y14.2659
G01 X35.4107 Y14.2795
G01 X35.4148 Y14.3636
G01 X35.4148 Y14.3774
G01 X35.4107 Y14.4615
G01 X35.4093 Y14.4751
G01 X35.3970 Y14.5584
G01 X35.3943 Y14.5719
G01 X35.3739 Y14.6536
G01 X35.3699 Y14.6667
G01 X35.3415 Y14.7460
G01 X35.3362 Y14.7587
G01 X35.3002 Y14.8348
G01 X35.2938 Y14.8469
G01 X35.2505 Y14.9191
G01 X35.2428 Y14.9306
G01 X35.1927 Y14.9982
G01 X35.1840 Y15.0088
G01 X35.1274 Y15.0712
G01 X35.1177 Y15.0809
G01 X35.0553 Y15.1375
G01 X35.0447 Y15.1462
G01 X34.9771 Y15.1963
